resources/luts/bw.cube
TITLE "bw"
LUT_3D_SIZE 16
0.000000 0.000000 0.000000
0.019933 0.019933 0.019933
0.039867 0.039867 0.039867
0.059800 0.059800 0.059800
0.079733 0.079733 0.079733
0.099667 0.099667 0.099667
0.119600 0.119600 0.119600
0.139533 0.139533 0.139533
0.159467 0.159467 0.159467
0.179400 0.179400 0.179400
0.199333 0.199333 0.199333
0.219267 0.219267 0.219267
0.239200 0.239200 0.239200
0.259133 0.259133 0.259133
0.279067 0.279067 0.279067
0.299000 0.299000 0.299000
0.039133 0.039133 0.039133
0.059067 0.059067 0.059067
0.079000 0.079000 0.079000
0.098933 0.098933 0.098933
0.118867 0.118867 0.118867
0.138800 0.138800 0.138800
0.158733 0.158733 0.158733
0.178667 0.178667 0.178667
0.198600 0.198600 0.198600
0.218533 0.218533 0.218533
0.238467 0.238467 0.238467
0.258400 0.258400 0.258400
0.278333 0.278333 0.278333
0.298267 0.298267 0.298267
0.318200 0.318200 0.318200
0.338133 0.338133 0.338133
0.078267 0.078267 0.078267
0.098200 0.098200 0.098200
0.118133 0.118133 0.118133
0.138067 0.138067 0.138067
0.158000 0.158000 0.158000
0.177933 0.177933 0.177933
0.197867 0.197867 0.197867
0.217800 0.217800 0.217800
0.237733 0.237733 0.237733
0.257667 0.257667 0.257667
0.277600 0.277600 0.277600
0.297533 0.297533 0.297533
0.317467 0.317467 0.317467
0.337400 0.337400 0.337400
0.357333 0.357333 0.357333
0.377267 0.377267 0.377267
0.117400 0.117400 0.117400
0.137333 0.137333 0.137333
0.157267 0.157267 0.157267
0.177200 0.177200 0.177200
0.197133 0.197133 0.197133
0.217067 0.217067 0.217067
0.237000 0.237000 0.237000
0.256933 0.256933 0.256933
0.276867 0.276867 0.276867
0.296800 0.296800 0.296800
0.316733 0.316733 0.316733
0.336667 0.336667 0.336667
0.356600 0.356600 0.356600
0.376533 0.376533 0.376533
0.396467 0.396467 0.396467
0.416400 0.416400 0.416400
0.156533 0.156533 0.156533
0.176467 0.176467 0.176467
0.196400 0.196400 0.196400
0.216333 0.216333 0.216333
0.236267 0.236267 0.236267
0.256200 0.256200 0.256200
0.276133 0.276133 0.276133
0.296067 0.296067 0.296067
0.316000 0.316000 0.316000
0.335933 0.335933 0.335933
0.355867 0.355867 0.355867
0.375800 0.375800 0.375800
0.395733 0.395733 0.395733
0.415667 0.415667 0.415667
0.435600 0.435600 0.435600
0.455533 0.455533 0.455533
0.195667 0.195667 0.195667
0.215600 0.215600 0.215600
0.235533 0.235533 0.235533
0.255467 0.255467 0.255467
0.275400 0.275400 0.275400
0.295333 0.295333 0.295333
0.315267 0.315267 0.315267
0.335200 0.335200 0.335200
0.355133 0.355133 0.355133
0.375067 0.375067 0.375067
0.395000 0.395000 0.395000
0.414933 0.414933 0.414933
0.434867 0.434867 0.434867
0.454800 0.454800 0.454800
0.474733 0.474733 0.474733
0.494667 0.494667 0.494667
0.234800 0.234800 0.234800
0.254733 0.254733 0.254733
0.274667 0.274667 0.274667
0.294600 0.294600 0.294600
0.314533 0.314533 0.314533
0.334467 0.334467 0.334467
0.354400 0.354400 0.354400
0.374333 0.374333 0.374333
0.394267 0.394267 0.394267
0.414200 0.414200 0.414200
0.434133 0.434133 0.434133
0.454067 0.454067 0.454067
0.474000 0.474000 0.474000
0.493933 0.493933 0.493933
0.513867 0.513867 0.513867
0.533800 0.533800 0.533800
0.273933 0.273933 0.273933
0.293867 0.293867 0.293867
0.313800 0.313800 0.313800
0.333733 0.333733 0.333733
0.353667 0.353667 0.353667
0.373600 0.373600 0.373600
0.393533 0.393533 0.393533
0.413467 0.413467 0.413467
0.433400 0.433400 0.433400
0.453333 0.453333 0.453333
0.473267 0.473267 0.473267
0.493200 0.493200 0.493200
0.513133 0.513133 0.513133
0.533067 0.533067 0.533067
0.553000 0.553000 0.553000
0.572933 0.572933 0.572933
0.313067 0.313067 0.313067
0.333000 0.333000 0.333000
0.352933 0.352933 0.352933
0.372867 0.372867 0.372867
0.392800 0.392800 0.392800
0.412733 0.412733 0.412733
0.432667 0.432667 0.432667
0.452600 0.452600 0.452600
0.472533 0.472533 0.472533
0.492467 0.492467 0.492467
0.512400 0.512400 0.512400
0.532333 0.532333 0.532333
0.552267 0.552267 0.552267
0.572200 0.572200 0.572200
0.592133 0.592133 0.592133
0.612067 0.612067 0.612067
0.352200 0.352200 0.352200
0.372133 0.372133 0.372133
0.392067 0.392067 0.392067
0.412000 0.412000 0.412000
0.431933 0.431933 0.431933
0.451867 0.451867 0.451867
0.471800 0.471800 0.471800
0.491733 0.491733 0.491733
0.511667 0.511667 0.511667
0.531600 0.531600 0.531600
0.551533 0.551533 0.551533
0.571467 0.571467 0.571467
0.591400 0.591400 0.591400
0.611333 0.611333 0.611333
0.631267 0.631267 0.631267
0.651200 0.651200 0.651200
0.391333 0.391333 0.391333
0.411267 0.411267 0.411267
0.431200 0.431200 0.431200
0.451133 0.451133 0.451133
0.471067 0.471067 0.471067
0.491000 0.491000 0.491000
0.510933 0.510933 0.510933
0.530867 0.530867 0.530867
0.550800 0.550800 0.550800
0.570733 0.570733 0.570733
0.590667 0.590667 0.590667
0.610600 0.610600 0.610600
0.630533 0.630533 0.630533
0.650467 0.650467 0.650467
0.670400 0.670400 0.670400
0.690333 0.690333 0.690333
0.430467 0.430467 0.430467
0.450400 0.450400 0.450400
0.470333 0.470333 0.470333
0.490267 0.490267 0.490267
0.510200 0.510200 0.510200
0.530133 0.530133 0.530133
0.550067 0.550067 0.550067
0.570000 0.570000 0.570000
0.589933 0.589933 0.589933
0.609867 0.609867 0.609867
0.629800 0.629800 0.629800
0.649733 0.649733 0.649733
0.669667 0.669667 0.669667
0.689600 0.689600 0.689600
0.709533 0.709533 0.709533
0.729467 0.729467 0.729467
0.469600 0.469600 0.469600
0.489533 0.489533 0.489533
0.509467 0.509467 0.509467
0.529400 0.529400 0.529400
0.549333 0.549333 0.549333
0.569267 0.569267 0.569267
0.589200 0.589200 0.589200
0.609133 0.609133 0.609133
0.629067 0.629067 0.629067
0.649000 0.649000 0.649000
0.668933 0.668933 0.668933
0.688867 0.688867 0.688867
0.708800 0.708800 0.708800
0.728733 0.728733 0.728733
0.748667 0.748667 0.748667
0.768600 0.768600 0.768600
0.508733 0.508733 0.508733
0.528667 0.528667 0.528667
0.548600 0.548600 0.548600
0.568533 0.568533 0.568533
0.588467 0.588467 0.588467
0.608400 0.608400 0.608400
0.628333 0.628333 0.628333
0.648267 0.648267 0.648267
0.668200 0.668200 0.668200
0.688133 0.688133 0.688133
0.708067 0.708067 0.708067
0.728000 0.728000 0.728000
0.747933 0.747933 0.747933
0.767867 0.767867 0.767867
0.787800 0.787800 0.787800
0.807733 0.807733 0.807733
0.547867 0.547867 0.547867
0.567800 0.567800 0.567800
0.587733 0.587733 0.587733
0.607667 0.607667 0.607667
0.627600 0.627600 0.627600
0.647533 0.647533 0.647533
0.667467 0.667467 0.667467
0.687400 0.687400 0.687400
0.707333 0.707333 0.707333
0.727267 0.727267 0.727267
0.747200 0.747200 0.747200
0.767133 0.767133 0.767133
0.787067 0.787067 0.787067
0.807000 0.807000 0.807000
0.826933 0.826933 0.826933
0.846867 0.846867 0.846867
0.587000 0.587000 0.587000
0.606933 0.606933 0.606933
0.626867 0.626867 0.626867
0.646800 0.646800 0.646800
0.666733 0.666733 0.666733
0.686667 0.686667 0.686667
0.706600 0.706600 0.706600
0.726533 0.726533 0.726533
0.746467 0.746467 0.746467
0.766400 0.766400 0.766400
0.786333 0.786333 0.786333
0.806267 0.806267 0.806267
0.826200 0.826200 0.826200
0.846133 0.846133 0.846133
0.866067 0.866067 0.866067
0.886000 0.886000 0.886000
0.007600 0.007600 0.007600
0.027533 0.027533 0.027533
0.047467 0.047467 0.047467
0.067400 0.067400 0.067400
0.087333 0.087333 0.087333
0.107267 0.107267 0.107267
0.127200 0.127200 0.127200
0.147133 0.147133 0.147133
0.167067 0.167067 0.167067
0.187000 0.187000 0.187000
0.206933 0.206933 0.206933
0.226867 0.226867 0.226867
0.246800 0.246800 0.246800
0.266733 0.266733 0.266733
0.286667 0.286667 0.286667
0.306600 0.306600 0.306600
0.046733 0.046733 0.046733
0.066667 0.066667 0.066667
0.086600 0.086600 0.086600
0.106533 0.106533 0.106533
0.126467 0.126467 0.126467
0.146400 0.146400 0.146400
0.166333 0.166333 0.166333
0.186267 0.186267 0.186267
0.206200 0.206200 0.206200
0.226133 0.226133 0.226133
0.246067 0.246067 0.246067
0.266000 0.266000 0.266000
0.285933 0.285933 0.285933
0.305867 0.305867 0.305867
0.325800 0.325800 0.325800
0.345733 0.345733 0.345733
0.085867 0.085867 0.085867
0.105800 0.105800 0.105800
0.125733 0.125733 0.125733
0.145667 0.145667 0.145667
0.165600 0.165600 0.165600
0.185533 0.185533 0.185533
0.205467 0.205467 0.205467
0.225400 0.225400 0.225400
0.245333 0.245333 0.245333
0.265267 0.265267 0.265267
0.285200 0.285200 0.285200
0.305133 0.305133 0.305133
0.325067 0.325067 0.325067
0.345000 0.345000 0.345000
0.364933 0.364933 0.364933
0.384867 0.384867 0.384867
0.125000 0.125000 0.125000
0.144933 0.144933 0.144933
0.164867 0.164867 0.164867
0.184800 0.184800 0.184800
0.204733 0.204733 0.204733
0.224667 0.224667 0.224667
0.244600 0.244600 0.244600
0.264533 0.264533 0.264533
0.284467 0.284467 0.284467
0.304400 0.304400 0.304400
0.324333 0.324333 0.324333
0.344267 0.344267 0.344267
0.364200 0.364200 0.364200
0.384133 0.384133 0.384133
0.404067 0.404067 0.404067
0.424000 0.424000 0.424000
0.164133 0.164133 0.164133
0.184067 0.184067 0.184067
0.204000 0.204000 0.204000
0.223933 0.223933 0.223933
0.243867 0.243867 0.243867
0.263800 0.263800 0.263800
0.283733 0.283733 0.283733
0.303667 0.303667 0.303667
0.323600 0.323600 0.323600
0.343533 0.343533 0.343533
0.363467 0.363467 0.363467
0.383400 0.383400 0.383400
0.403333 0.403333 0.403333
0.423267 0.423267 0.423267
0.443200 0.443200 0.443200
0.463133 0.463133 0.463133
0.203267 0.203267 0.203267
0.223200 0.223200 0.223200
0.243133 0.243133 0.243133
0.263067 0.263067 0.263067
0.283000 0.283000 0.283000
0.302933 0.302933 0.302933
0.322867 0.322867 0.322867
0.342800 0.342800 0.342800
0.362733 0.362733 0.362733
0.382667 0.382667 0.382667
0.402600 0.402600 0.402600
0.422533 0.422533 0.422533
0.442467 0.442467 0.442467
0.462400 0.462400 0.462400
0.482333 0.482333 0.482333
0.502267 0.502267 0.502267
0.242400 0.242400 0.242400
0.262333 0.262333 0.262333
0.282267 0.282267 0.282267
0.302200 0.302200 0.302200
0.322133 0.322133 0.322133
0.342067 0.342067 0.342067
0.362000 0.362000 0.362000
0.381933 0.381933 0.381933
0.401867 0.401867 0.401867
0.421800 0.421800 0.421800
0.441733 0.441733 0.441733
0.461667 0.461667 0.461667
0.481600 0.481600 0.481600
0.501533 0.501533 0.501533
0.521467 0.521467 0.521467
0.541400 0.541400 0.541400
0.281533 0.281533 0.281533
0.301467 0.301467 0.301467
0.321400 0.321400 0.321400
0.341333 0.341333 0.341333
0.361267 0.361267 0.361267
0.381200 0.381200 0.381200
0.401133 0.401133 0.401133
0.421067 0.421067 0.421067
0.441000 0.441000 0.441000
0.460933 0.460933 0.460933
0.480867 0.480867 0.480867
0.500800 0.500800 0.500800
0.520733 0.520733 0.520733
0.540667 0.540667 0.540667
0.560600 0.560600 0.560600
0.580533 0.580533 0.580533
0.320667 0.320667 0.320667
0.340600 0.340600 0.340600
0.360533 0.360533 0.360533
0.380467 0.380467 0.380467
0.400400 0.400400 0.400400
0.420333 0.420333 0.420333
0.440267 0.440267 0.440267
0.460200 0.460200 0.460200
0.480133 0.480133 0.480133
0.500067 0.500067 0.500067
0.520000 0.520000 0.520000
0.539933 0.539933 0.539933
0.559867 0.559867 0.559867
0.579800 0.579800 0.579800
0.599733 0.599733 0.599733
0.619667 0.619667 0.619667
0.359800 0.359800 0.359800
0.379733 0.379733 0.379733
0.399667 0.399667 0.399667
0.419600 0.419600 0.419600
0.439533 0.439533 0.439533
0.459467 0.459467 0.459467
0.479400 0.479400 0.479400
0.499333 0.499333 0.499333
0.519267 0.519267 0.519267
0.539200 0.539200 0.539200
0.559133 0.559133 0.559133
0.579067 0.579067 0.579067
0.599000 0.599000 0.599000
0.618933 0.618933 0.618933
0.638867 0.638867 0.638867
0.658800 0.658800 0.658800
0.398933 0.398933 0.398933
0.418867 0.418867 0.418867
0.438800 0.438800 0.438800
0.458733 0.458733 0.458733
0.478667 0.478667 0.478667
0.498600 0.498600 0.498600
0.518533 0.518533 0.518533
0.538467 0.538467 0.538467
0.558400 0.558400 0.558400
0.578333 0.578333 0.578333
0.598267 0.598267 0.598267
0.618200 0.618200 0.618200
0.638133 0.638133 0.638133
0.658067 0.658067 0.658067
0.678000 0.678000 0.678000
0.697933 0.697933 0.697933
0.438067 0.438067 0.438067
0.458000 0.458000 0.458000
0.477933 0.477933 0.477933
0.497867 0.497867 0.497867
0.517800 0.517800 0.517800
0.537733 0.537733 0.537733
0.557667 0.557667 0.557667
0.577600 0.577600 0.577600
0.597533 0.597533 0.597533
0.617467 0.617467 0.617467
0.637400 0.637400 0.637400
0.657333 0.657333 0.657333
0.677267 0.677267 0.677267
0.697200 0.697200 0.697200
0.717133 0.717133 0.717133
0.737067 0.737067 0.737067
0.477200 0.477200 0.477200
0.497133 0.497133 0.497133
0.517067 0.517067 0.517067
0.537000 0.537000 0.537000
0.556933 0.556933 0.556933
0.576867 0.576867 0.576867
0.596800 0.596800 0.596800
0.616733 0.616733 0.616733
0.636667 0.636667 0.636667
0.656600 0.656600 0.656600
0.676533 0.676533 0.676533
0.696467 0.696467 0.696467
0.716400 0.716400 0.716400
0.736333 0.736333 0.736333
0.756267 0.756267 0.756267
0.776200 0.776200 0.776200
0.516333 0.516333 0.516333
0.536267 0.536267 0.536267
0.556200 0.556200 0.556200
0.576133 0.576133 0.576133
0.596067 0.596067 0.596067
0.616000 0.616000 0.616000
0.635933 0.635933 0.635933
0.655867 0.655867 0.655867
0.675800 0.675800 0.675800
0.695733 0.695733 0.695733
0.715667 0.715667 0.715667
0.735600 0.735600 0.735600
0.755533 0.755533 0.755533
0.775467 0.775467 0.775467
0.795400 0.795400 0.795400
0.815333 0.815333 0.815333
0.555467 0.555467 0.555467
0.575400 0.575400 0.575400
0.595333 0.595333 0.595333
0.615267 0.615267 0.615267
0.635200 0.635200 0.635200
0.655133 0.655133 0.655133
0.675067 0.675067 0.675067
0.695000 0.695000 0.695000
0.714933 0.714933 0.714933
0.734867 0.734867 0.734867
0.754800 0.754800 0.754800
0.774733 0.774733 0.774733
0.794667 0.794667 0.794667
0.814600 0.814600 0.814600
0.834533 0.834533 0.834533
0.854467 0.854467 0.854467
0.594600 0.594600 0.594600
0.614533 0.614533 0.614533
0.634467 0.634467 0.634467
0.654400 0.654400 0.654400
0.674333 0.674333 0.674333
0.694267 0.694267 0.694267
0.714200 0.714200 0.714200
0.734133 0.734133 0.734133
0.754067 0.754067 0.754067
0.774000 0.774000 0.774000
0.793933 0.793933 0.793933
0.813867 0.813867 0.813867
0.833800 0.833800 0.833800
0.853733 0.853733 0.853733
0.873667 0.873667 0.873667
0.893600 0.893600 0.893600
0.015200 0.015200 0.015200
0.035133 0.035133 0.035133
0.055067 0.055067 0.055067
0.075000 0.075000 0.075000
0.094933 0.094933 0.094933
0.114867 0.114867 0.114867
0.134800 0.134800 0.134800
0.154733 0.154733 0.154733
0.174667 0.174667 0.174667
0.194600 0.194600 0.194600
0.214533 0.214533 0.214533
0.234467 0.234467 0.234467
0.254400 0.254400 0.254400
0.274333 0.274333 0.274333
0.294267 0.294267 0.294267
0.314200 0.314200 0.314200
0.054333 0.054333 0.054333
0.074267 0.074267 0.074267
0.094200 0.094200 0.094200
0.114133 0.114133 0.114133
0.134067 0.134067 0.134067
0.154000 0.154000 0.154000
0.173933 0.173933 0.173933
0.193867 0.193867 0.193867
0.213800 0.213800 0.213800
0.233733 0.233733 0.233733
0.253667 0.253667 0.253667
0.273600 0.273600 0.273600
0.293533 0.293533 0.293533
0.313467 0.313467 0.313467
0.333400 0.333400 0.333400
0.353333 0.353333 0.353333
0.093467 0.093467 0.093467
0.113400 0.113400 0.113400
0.133333 0.133333 0.133333
0.153267 0.153267 0.153267
0.173200 0.173200 0.173200
0.193133 0.193133 0.193133
0.213067 0.213067 0.213067
0.233000 0.233000 0.233000
0.252933 0.252933 0.252933
0.272867 0.272867 0.272867
0.292800 0.292800 0.292800
0.312733 0.312733 0.312733
0.332667 0.332667 0.332667
0.352600 0.352600 0.352600
0.372533 0.372533 0.372533
0.392467 0.392467 0.392467
0.132600 0.132600 0.132600
0.152533 0.152533 0.152533
0.172467 0.172467 0.172467
0.192400 0.192400 0.192400
0.212333 0.212333 0.212333
0.232267 0.232267 0.232267
0.252200 0.252200 0.252200
0.272133 0.272133 0.272133
0.292067 0.292067 0.292067
0.312000 0.312000 0.312000
0.331933 0.331933 0.331933
0.351867 0.351867 0.351867
0.371800 0.371800 0.371800
0.391733 0.391733 0.391733
0.411667 0.411667 0.411667
0.431600 0.431600 0.431600
0.171733 0.171733 0.171733
0.191667 0.191667 0.191667
0.211600 0.211600 0.211600
0.231533 0.231533 0.231533
0.251467 0.251467 0.251467
0.271400 0.271400 0.271400
0.291333 0.291333 0.291333
0.311267 0.311267 0.311267
0.331200 0.331200 0.331200
0.351133 0.351133 0.351133
0.371067 0.371067 0.371067
0.391000 0.391000 0.391000
0.410933 0.410933 0.410933
0.430867 0.430867 0.430867
0.450800 0.450800 0.450800
0.470733 0.470733 0.470733
0.210867 0.210867 0.210867
0.230800 0.230800 0.230800
0.250733 0.250733 0.250733
0.270667 0.270667 0.270667
0.290600 0.290600 0.290600
0.310533 0.310533 0.310533
0.330467 0.330467 0.330467
0.350400 0.350400 0.350400
0.370333 0.370333 0.370333
0.390267 0.390267 0.390267
0.410200 0.410200 0.410200
0.430133 0.430133 0.430133
0.450067 0.450067 0.450067
0.470000 0.470000 0.470000
0.489933 0.489933 0.489933
0.509867 0.509867 0.509867
0.250000 0.250000 0.250000
0.269933 0.269933 0.269933
0.289867 0.289867 0.289867
0.309800 0.309800 0.309800
0.329733 0.329733 0.329733
0.349667 0.349667 0.349667
0.369600 0.369600 0.369600
0.389533 0.389533 0.389533
0.409467 0.409467 0.409467
0.429400 0.429400 0.429400
0.449333 0.449333 0.449333
0.469267 0.469267 0.469267
0.489200 0.489200 0.489200
0.509133 0.509133 0.509133
0.529067 0.529067 0.529067
0.549000 0.549000 0.549000
0.289133 0.289133 0.289133
0.309067 0.309067 0.309067
0.329000 0.329000 0.329000
0.348933 0.348933 0.348933
0.368867 0.368867 0.368867
0.388800 0.388800 0.388800
0.408733 0.408733 0.408733
0.428667 0.428667 0.428667
0.448600 0.448600 0.448600
0.468533 0.468533 0.468533
0.488467 0.488467 0.488467
0.508400 0.508400 0.508400
0.528333 0.528333 0.528333
0.548267 0.548267 0.548267
0.568200 0.568200 0.568200
0.588133 0.588133 0.588133
0.328267 0.328267 0.328267
0.348200 0.348200 0.348200
0.368133 0.368133 0.368133
0.388067 0.388067 0.388067
0.408000 0.408000 0.408000
0.427933 0.427933 0.427933
0.447867 0.447867 0.447867
0.467800 0.467800 0.467800
0.487733 0.487733 0.487733
0.507667 0.507667 0.507667
0.527600 0.527600 0.527600
0.547533 0.547533 0.547533
0.567467 0.567467 0.567467
0.587400 0.587400 0.587400
0.607333 0.607333 0.607333
0.627267 0.627267 0.627267
0.367400 0.367400 0.367400
0.387333 0.387333 0.387333
0.407267 0.407267 0.407267
0.427200 0.427200 0.427200
0.447133 0.447133 0.447133
0.467067 0.467067 0.467067
0.487000 0.487000 0.487000
0.506933 0.506933 0.506933
0.526867 0.526867 0.526867
0.546800 0.546800 0.546800
0.566733 0.566733 0.566733
0.586667 0.586667 0.586667
0.606600 0.606600 0.606600
0.626533 0.626533 0.626533
0.646467 0.646467 0.646467
0.666400 0.666400 0.666400
0.406533 0.406533 0.406533
0.426467 0.426467 0.426467
0.446400 0.446400 0.446400
0.466333 0.466333 0.466333
0.486267 0.486267 0.486267
0.506200 0.506200 0.506200
0.526133 0.526133 0.526133
0.546067 0.546067 0.546067
0.566000 0.566000 0.566000
0.585933 0.585933 0.585933
0.605867 0.605867 0.605867
0.625800 0.625800 0.625800
0.645733 0.645733 0.645733
0.665667 0.665667 0.665667
0.685600 0.685600 0.685600
0.705533 0.705533 0.705533
0.445667 0.445667 0.445667
0.465600 0.465600 0.465600
0.485533 0.485533 0.485533
0.505467 0.505467 0.505467
0.525400 0.525400 0.525400
0.545333 0.545333 0.545333
0.565267 0.565267 0.565267
0.585200 0.585200 0.585200
0.605133 0.605133 0.605133
0.625067 0.625067 0.625067
0.645000 0.645000 0.645000
0.664933 0.664933 0.664933
0.684867 0.684867 0.684867
0.704800 0.704800 0.704800
0.724733 0.724733 0.724733
0.744667 0.744667 0.744667
0.484800 0.484800 0.484800
0.504733 0.504733 0.504733
0.524667 0.524667 0.524667
0.544600 0.544600 0.544600
0.564533 0.564533 0.564533
0.584467 0.584467 0.584467
0.604400 0.604400 0.604400
0.624333 0.624333 0.624333
0.644267 0.644267 0.644267
0.664200 0.664200 0.664200
0.684133 0.684133 0.684133
0.704067 0.704067 0.704067
0.724000 0.724000 0.724000
0.743933 0.743933 0.743933
0.763867 0.763867 0.763867
0.783800 0.783800 0.783800
0.523933 0.523933 0.523933
0.543867 0.543867 0.543867
0.563800 0.563800 0.563800
0.583733 0.583733 0.583733
0.603667 0.603667 0.603667
0.623600 0.623600 0.623600
0.643533 0.643533 0.643533
0.663467 0.663467 0.663467
0.683400 0.683400 0.683400
0.703333 0.703333 0.703333
0.723267 0.723267 0.723267
0.743200 0.743200 0.743200
0.763133 0.763133 0.763133
0.783067 0.783067 0.783067
0.803000 0.803000 0.803000
0.822933 0.822933 0.822933
0.563067 0.563067 0.563067
0.583000 0.583000 0.583000
0.602933 0.602933 0.602933
0.622867 0.622867 0.622867
0.642800 0.642800 0.642800
0.662733 0.662733 0.662733
0.682667 0.682667 0.682667
0.702600 0.702600 0.702600
0.722533 0.722533 0.722533
0.742467 0.742467 0.742467
0.762400 0.762400 0.762400
0.782333 0.782333 0.782333
0.802267 0.802267 0.802267
0.822200 0.822200 0.822200
0.842133 0.842133 0.842133
0.862067 0.862067 0.862067
0.602200 0.602200 0.602200
0.622133 0.622133 0.622133
0.642067 0.642067 0.642067
0.662000 0.662000 0.662000
0.681933 0.681933 0.681933
0.701867 0.701867 0.701867
0.721800 0.721800 0.721800
0.741733 0.741733 0.741733
0.761667 0.761667 0.761667
0.781600 0.781600 0.781600
0.801533 0.801533 0.801533
0.821467 0.821467 0.821467
0.841400 0.841400 0.841400
0.861333 0.861333 0.861333
0.881267 0.881267 0.881267
0.901200 0.901200 0.901200
0.022800 0.022800 0.022800
0.042733 0.042733 0.042733
0.062667 0.062667 0.062667
0.082600 0.082600 0.082600
0.102533 0.102533 0.102533
0.122467 0.122467 0.122467
0.142400 0.142400 0.142400
0.162333 0.162333 0.162333
0.182267 0.182267 0.182267
0.202200 0.202200 0.202200
0.222133 0.222133 0.222133
0.242067 0.242067 0.242067
0.262000 0.262000 0.262000
0.281933 0.281933 0.281933
0.301867 0.301867 0.301867
0.321800 0.321800 0.321800
0.061933 0.061933 0.061933
0.081867 0.081867 0.081867
0.101800 0.101800 0.101800
0.121733 0.121733 0.121733
0.141667 0.141667 0.141667
0.161600 0.161600 0.161600
0.181533 0.181533 0.181533
0.201467 0.201467 0.201467
0.221400 0.221400 0.221400
0.241333 0.241333 0.241333
0.261267 0.261267 0.261267
0.281200 0.281200 0.281200
0.301133 0.301133 0.301133
0.321067 0.321067 0.321067
0.341000 0.341000 0.341000
0.360933 0.360933 0.360933
0.101067 0.101067 0.101067
0.121000 0.121000 0.121000
0.140933 0.140933 0.140933
0.160867 0.160867 0.160867
0.180800 0.180800 0.180800
0.200733 0.200733 0.200733
0.220667 0.220667 0.220667
0.240600 0.240600 0.240600
0.260533 0.260533 0.260533
0.280467 0.280467 0.280467
0.300400 0.300400 0.300400
0.320333 0.320333 0.320333
0.340267 0.340267 0.340267
0.360200 0.360200 0.360200
0.380133 0.380133 0.380133
0.400067 0.400067 0.400067
0.140200 0.140200 0.140200
0.160133 0.160133 0.160133
0.180067 0.180067 0.180067
0.200000 0.200000 0.200000
0.219933 0.219933 0.219933
0.239867 0.239867 0.239867
0.259800 0.259800 0.259800
0.279733 0.279733 0.279733
0.299667 0.299667 0.299667
0.319600 0.319600 0.319600
0.339533 0.339533 0.339533
0.359467 0.359467 0.359467
0.379400 0.379400 0.379400
0.399333 0.399333 0.399333
0.419267 0.419267 0.419267
0.439200 0.439200 0.439200
0.179333 0.179333 0.179333
0.199267 0.199267 0.199267
0.219200 0.219200 0.219200
0.239133 0.239133 0.239133
0.259067 0.259067 0.259067
0.279000 0.279000 0.279000
0.298933 0.298933 0.298933
0.318867 0.318867 0.318867
0.338800 0.338800 0.338800
0.358733 0.358733 0.358733
0.378667 0.378667 0.378667
0.398600 0.398600 0.398600
0.418533 0.418533 0.418533
0.438467 0.438467 0.438467
0.458400 0.458400 0.458400
0.478333 0.478333 0.478333
0.218467 0.218467 0.218467
0.238400 0.238400 0.238400
0.258333 0.258333 0.258333
0.278267 0.278267 0.278267
0.298200 0.298200 0.298200
0.318133 0.318133 0.318133
0.338067 0.338067 0.338067
0.358000 0.358000 0.358000
0.377933 0.377933 0.377933
0.397867 0.397867 0.397867
0.417800 0.417800 0.417800
0.437733 0.437733 0.437733
0.457667 0.457667 0.457667
0.477600 0.477600 0.477600
0.497533 0.497533 0.497533
0.517467 0.517467 0.517467
0.257600 0.257600 0.257600
0.277533 0.277533 0.277533
0.297467 0.297467 0.297467
0.317400 0.317400 0.317400
0.337333 0.337333 0.337333
0.357267 0.357267 0.357267
0.377200 0.377200 0.377200
0.397133 0.397133 0.397133
0.417067 0.417067 0.417067
0.437000 0.437000 0.437000
0.456933 0.456933 0.456933
0.476867 0.476867 0.476867
0.496800 0.496800 0.496800
0.516733 0.516733 0.516733
0.536667 0.536667 0.536667
0.556600 0.556600 0.556600
0.296733 0.296733 0.296733
0.316667 0.316667 0.316667
0.336600 0.336600 0.336600
0.356533 0.356533 0.356533
0.376467 0.376467 0.376467
0.396400 0.396400 0.396400
0.416333 0.416333 0.416333
