resources/luts/bw.cube
TITLE "bw"
LUT_3D_SIZE 6
0.000000 0.000000 0.000000
0.059800 0.059800 0.059800
0.119600 0.119600 0.119600
0.179400 0.179400 0.179400
0.239200 0.239200 0.239200
0.299000 0.299000 0.299000
0.117400 0.117400 0.117400
0.177200 0.177200 0.177200
0.237000 0.237000 0.237000
0.296800 0.296800 0.296800
0.356600 0.356600 0.356600
0.416400 0.416400 0.416400
0.234800 0.234800 0.234800
0.294600 0.294600 0.294600
0.354400 0.354400 0.354400
0.414200 0.414200 0.414200
0.474000 0.474000 0.474000
0.533800 0.533800 0.533800
0.352200 0.352200 0.352200
0.412000 0.412000 0.412000
0.471800 0.471800 0.471800
0.531600 0.531600 0.531600
0.591400 0.591400 0.591400
0.651200 0.651200 0.651200
0.469600 0.469600 0.469600
0.529400 0.529400 0.529400
0.589200 0.589200 0.589200
0.649000 0.649000 0.649000
0.708800 0.708800 0.708800
0.768600 0.768600 0.768600
0.587000 0.587000 0.587000
0.646800 0.646800 0.646800
0.706600 0.706600 0.706600
0.766400 0.766400 0.766400
0.826200 0.826200 0.826200
0.886000 0.886000 0.886000
0.022800 0.022800 0.022800
0.082600 0.082600 0.082600
0.142400 0.142400 0.142400
0.202200 0.202200 0.202200
0.262000 0.262000 0.262000
0.321800 0.321800 0.321800
0.140200 0.140200 0.140200
0.200000 0.200000 0.200000
0.259800 0.259800 0.259800
0.319600 0.319600 0.319600
0.379400 0.379400 0.379400
0.439200 0.439200 0.439200
0.257600 0.257600 0.257600
0.317400 0.317400 0.317400
0.377200 0.377200 0.377200
0.437000 0.437000 0.437000
0.496800 0.496800 0.496800
0.556600 0.556600 0.556600
0.375000 0.375000 0.375000
0.434800 0.434800 0.434800
0.494600 0.494600 0.494600
0.554400 0.554400 0.554400
0.614200 0.614200 0.614200
0.674000 0.674000 0.674000
0.492400 0.492400 0.492400
0.552200 0.552200 0.552200
0.612000 0.612000 0.612000
0.671800 0.671800 0.671800
0.731600 0.731600 0.731600
0.791400 0.791400 0.791400
0.609800 0.609800 0.609800
0.669600 0.669600 0.669600
0.729400 0.729400 0.729400
0.789200 0.789200 0.789200
0.849000 0.849000 0.849000
0.908800 0.908800 0.908800
0.045600 0.045600 0.045600
0.105400 0.105400 0.105400
0.165200 0.165200 0.165200
0.225000 0.225000 0.225000
0.284800 0.284800 0.284800
0.344600 0.344600 0.344600
0.163000 0.163000 0.163000
0.222800 0.222800 0.222800
0.282600 0.282600 0.282600
0.342400 0.342400 0.342400
0.402200 0.402200 0.402200
0.462000 0.462000 0.462000
0.280400 0.280400 0.280400
0.340200 0.340200 0.340200
0.400000 0.400000 0.400000
0.459800 0.459800 0.459800
0.519600 0.519600 0.519600
0.579400 0.579400 0.579400
0.397800 0.397800 0.397800
0.457600 0.457600 0.457600
0.517400 0.517400 0.517400
0.577200 0.577200 0.577200
0.637000 0.637000 0.637000
0.696800 0.696800 0.696800
0.515200 0.515200 0.515200
0.575000 0.575000 0.575000
0.634800 0.634800 0.634800
0.694600 0.694600 0.694600
0.754400 0.754400 0.754400
0.814200 0.814200 0.814200
0.632600 0.632600 0.632600
0.692400 0.692400 0.692400
0.752200 0.752200 0.752200
0.812000 0.812000 0.812000
0.871800 0.871800 0.871800
0.931600 0.931600 0.931600
0.068400 0.068400 0.068400
0.128200 0.128200 0.128200
0.188000 0.188000 0.188000
0.247800 0.247800 0.247800
0.307600 0.307600 0.307600
0.367400 0.367400 0.367400
0.185800 0.185800 0.185800
0.245600 0.245600 0.245600
0.305400 0.305400 0.305400
0.365200 0.365200 0.365200
0.425000 0.425000 0.425000
0.484800 0.484800 0.484800
0.303200 0.303200 0.303200
0.363000 0.363000 0.363000
0.422800 0.422800 0.422800
0.482600 0.482600 0.482600
0.542400 0.542400 0.542400
0.602200 0.602200 0.602200
0.420600 0.420600 0.420600
0.480400 0.480400 0.480400
0.540200 0.540200 0.540200
0.600000 0.600000 0.600000
0.659800 0.659800 0.659800
0.719600 0.719600 0.719600
0.538000 0.538000 0.538000
0.597800 0.597800 0.597800
0.657600 0.657600 0.657600
0.717400 0.717400 0.717400
0.777200 0.777200 0.777200
0.837000 0.837000 0.837000
0.655400 0.655400 0.655400
0.715200 0.715200 0.715200
0.775000 0.775000 0.775000
0.834800 0.834800 0.834800
0.894600 0.894600 0.894600
0.954400 0.954400 0.954400
0.091200 0.091200 0.091200
0.151000 0.151000 0.151000
0.210800 0.210800 0.210800
0.270600 0.270600 0.270600
0.330400 0.330400 0.330400
0.390200 0.390200 0.390200
0.208600 0.208600 0.208600
0.268400 0.268400 0.268400
0.328200 0.328200 0.328200
0.388000 0.388000 0.388000
0.447800 0.447800 0.447800
0.507600 0.507600 0.507600
0.326000 0.326000 0.326000
0.385800 0.385800 0.385800
0.445600 0.445600 0.445600
0.505400 0.505400 0.505400
0.565200 0.565200 0.565200
0.625000 0.625000 0.625000
0.443400 0.443400 0.443400
0.503200 0.503200 0.503200
0.563000 0.563000 0.563000
0.622800 0.622800 0.622800
0.682600 0.682600 0.682600
0.742400 0.742400 0.742400
0.560800 0.560800 0.560800
0.620600 0.620600 0.620600
0.680400 0.680400 0.680400
0.740200 0.740200 0.740200
0.800000 0.800000 0.800000
0.859800 0.859800 0.859800
0.678200 0.678200 0.678200
0.738000 0.738000 0.738000
0.797800 0.797800 0.797800
0.857600 0.857600 0.857600
0.917400 0.917400 0.917400
0.977200 0.977200 0.977200
0.114000 0.114000 0.114000
0.173800 0.173800 0.173800
0.233600 0.233600 0.233600
0.293400 0.293400 0.293400
0.353200 0.353200 0.353200
0.413000 0.413000 0.413000
0.231400 0.231400 0.231400
0.291200 0.291200 0.291200
0.351000 0.351000 0.351000
0.410800 0.410800 0.410800
0.470600 0.470600 0.470600
0.530400 0.530400 0.530400
0.348800 0.348800 0.348800
0.408600 0.408600 0.408600
0.468400 0.468400 0.468400
0.528200 0.528200 0.528200
0.588000 0.588000 0.588000
0.647800 0.647800 0.647800
0.466200 0.466200 0.466200
0.526000 0.526000 0.526000
0.585800 0.585800 0.585800
0.645600 0.645600 0.645600
0.705400 0.705400 0.705400
0.765200 0.765200 0.765200
0.583600 0.583600 0.583600
0.643400 0.643400 0.643400
0.703200 0.703200 0.703200
0.763000 0.763000 0.763000
0.822800 0.822800 0.822800
0.882600 0.882600 0.882600
0.701000 0.701000 0.701000
0.760800 0.760800 0.760800
0.820600 0.820600 0.820600
0.880400 0.880400 0.880400
0.940200 0.940200 0.940200
1.000000 1.000000 1.000000
