resources/luts/contrast.cube
TITLE "contrast"
LUT_3D_SIZE 6
0.000000 0.000000 0.000000
0.110000 0.000000 0.000000
0.370000 0.000000 0.000000
0.630000 0.000000 0.000000
0.890000 0.000000 0.000000
1.000000 0.000000 0.000000
0.000000 0.110000 0.000000
0.110000 0.110000 0.000000
0.370000 0.110000 0.000000
0.630000 0.110000 0.000000
0.890000 0.110000 0.000000
1.000000 0.110000 0.000000
0.000000 0.370000 0.000000
0.110000 0.370000 0.000000
0.370000 0.370000 0.000000
0.630000 0.370000 0.000000
0.890000 0.370000 0.000000
1.000000 0.370000 0.000000
0.000000 0.630000 0.000000
0.110000 0.630000 0.000000
0.370000 0.630000 0.000000
0.630000 0.630000 0.000000
0.890000 0.630000 0.000000
1.000000 0.630000 0.000000
0.000000 0.890000 0.000000
0.110000 0.890000 0.000000
0.370000 0.890000 0.000000
0.630000 0.890000 0.000000
0.890000 0.890000 0.000000
1.000000 0.890000 0.000000
0.000000 1.000000 0.000000
0.110000 1.000000 0.000000
0.370000 1.000000 0.000000
0.630000 1.000000 0.000000
0.890000 1.000000 0.000000
1.000000 1.000000 0.000000
0.000000 0.000000 0.110000
0.110000 0.000000 0.110000
0.370000 0.000000 0.110000
0.630000 0.000000 0.110000
0.890000 0.000000 0.110000
1.000000 0.000000 0.110000
0.000000 0.110000 0.110000
0.110000 0.110000 0.110000
0.370000 0.110000 0.110000
0.630000 0.110000 0.110000
0.890000 0.110000 0.110000
1.000000 0.110000 0.110000
0.000000 0.370000 0.110000
0.110000 0.370000 0.110000
0.370000 0.370000 0.110000
0.630000 0.370000 0.110000
0.890000 0.370000 0.110000
1.000000 0.370000 0.110000
0.000000 0.630000 0.110000
0.110000 0.630000 0.110000
0.370000 0.630000 0.110000
0.630000 0.630000 0.110000
0.890000 0.630000 0.110000
1.000000 0.630000 0.110000
0.000000 0.890000 0.110000
0.110000 0.890000 0.110000
0.370000 0.890000 0.110000
0.630000 0.890000 0.110000
0.890000 0.890000 0.110000
1.000000 0.890000 0.110000
0.000000 1.000000 0.110000
0.110000 1.000000 0.110000
0.370000 1.000000 0.110000
0.630000 1.000000 0.110000
0.890000 1.000000 0.110000
1.000000 1.000000 0.110000
0.000000 0.000000 0.370000
0.110000 0.000000 0.370000
0.370000 0.000000 0.370000
0.630000 0.000000 0.370000
0.890000 0.000000 0.370000
1.000000 0.000000 0.370000
0.000000 0.110000 0.370000
0.110000 0.110000 0.370000
0.370000 0.110000 0.370000
0.630000 0.110000 0.370000
0.890000 0.110000 0.370000
1.000000 0.110000 0.370000
0.000000 0.370000 0.370000
0.110000 0.370000 0.370000
0.370000 0.370000 0.370000
0.630000 0.370000 0.370000
0.890000 0.370000 0.370000
1.000000 0.370000 0.370000
0.000000 0.630000 0.370000
0.110000 0.630000 0.370000
0.370000 0.630000 0.370000
0.630000 0.630000 0.370000
0.890000 0.630000 0.370000
1.000000 0.630000 0.370000
0.000000 0.890000 0.370000
0.110000 0.890000 0.370000
0.370000 0.890000 0.370000
0.630000 0.890000 0.370000
0.890000 0.890000 0.370000
1.000000 0.890000 0.370000
0.000000 1.000000 0.370000
0.110000 1.000000 0.370000
0.370000 1.000000 0.370000
0.630000 1.000000 0.370000
0.890000 1.000000 0.370000
1.000000 1.000000 0.370000
0.000000 0.000000 0.630000
0.110000 0.000000 0.630000
0.370000 0.000000 0.630000
0.630000 0.000000 0.630000
0.890000 0.000000 0.630000
1.000000 0.000000 0.630000
0.000000 0.110000 0.630000
0.110000 0.110000 0.630000
0.370000 0.110000 0.630000
0.630000 0.110000 0.630000
0.890000 0.110000 0.630000
1.000000 0.110000 0.630000
0.000000 0.370000 0.630000
0.110000 0.370000 0.630000
0.370000 0.370000 0.630000
0.630000 0.370000 0.630000
0.890000 0.370000 0.630000
1.000000 0.370000 0.630000
0.000000 0.630000 0.630000
0.110000 0.630000 0.630000
0.370000 0.630000 0.630000
0.630000 0.630000 0.630000
0.890000 0.630000 0.630000
1.000000 0.630000 0.630000
0.000000 0.890000 0.630000
0.110000 0.890000 0.630000
0.370000 0.890000 0.630000
0.630000 0.890000 0.630000
0.890000 0.890000 0.630000
1.000000 0.890000 0.630000
0.000000 1.000000 0.630000
0.110000 1.000000 0.630000
0.370000 1.000000 0.630000
0.630000 1.000000 0.630000
0.890000 1.000000 0.630000
1.000000 1.000000 0.630000
0.000000 0.000000 0.890000
0.110000 0.000000 0.890000
0.370000 0.000000 0.890000
0.630000 0.000000 0.890000
0.890000 0.000000 0.890000
1.000000 0.000000 0.890000
0.000000 0.110000 0.890000
0.110000 0.110000 0.890000
0.370000 0.110000 0.890000
0.630000 0.110000 0.890000
0.890000 0.110000 0.890000
1.000000 0.110000 0.890000
0.000000 0.370000 0.890000
0.110000 0.370000 0.890000
0.370000 0.370000 0.890000
0.630000 0.370000 0.890000
0.890000 0.370000 0.890000
1.000000 0.370000 0.890000
0.000000 0.630000 0.890000
0.110000 0.630000 0.890000
0.370000 0.630000 0.890000
0.630000 0.630000 0.890000
0.890000 0.630000 0.890000
1.000000 0.630000 0.890000
0.000000 0.890000 0.890000
0.110000 0.890000 0.890000
0.370000 0.890000 0.890000
0.630000 0.890000 0.890000
0.890000 0.890000 0.890000
1.000000 0.890000 0.890000
0.000000 1.000000 0.890000
0.110000 1.000000 0.890000
0.370000 1.000000 0.890000
0.630000 1.000000 0.890000
0.890000 1.000000 0.890000
1.000000 1.000000 0.890000
0.000000 0.000000 1.000000
0.110000 0.000000 1.000000
0.370000 0.000000 1.000000
0.630000 0.000000 1.000000
0.890000 0.000000 1.000000
1.000000 0.000000 1.000000
0.000000 0.110000 1.000000
0.110000 0.110000 1.000000
0.370000 0.110000 1.000000
0.630000 0.110000 1.000000
0.890000 0.110000 1.000000
1.000000 0.110000 1.000000
0.000000 0.370000 1.000000
0.110000 0.370000 1.000000
0.370000 0.370000 1.000000
0.630000 0.370000 1.000000
0.890000 0.370000 1.000000
1.000000 0.370000 1.000000
0.000000 0.630000 1.000000
0.110000 0.630000 1.000000
0.370000 0.630000 1.000000
0.630000 0.630000 1.000000
0.890000 0.630000 1.000000
1.000000 0.630000 1.000000
0.000000 0.890000 1.000000
0.110000 0.890000 1.000000
0.370000 0.890000 1.000000
0.630000 0.890000 1.000000
0.890000 0.890000 1.000000
1.000000 0.890000 1.000000
0.000000 1.000000 1.000000
0.110000 1.000000 1.000000
0.370000 1.000000 1.000000
0.630000 1.000000 1.000000
0.890000 1.000000 1.000000
1.000000 1.000000 1.000000
