resources/luts/contrast.cube
TITLE "contrast"
LUT_3D_SIZE 16
0.000000 0.000000 0.000000
0.000000 0.000000 0.000000
0.023333 0.000000 0.000000
0.110000 0.000000 0.000000
0.196667 0.000000 0.000000
0.283333 0.000000 0.000000
0.370000 0.000000 0.000000
0.456667 0.000000 0.000000
0.543333 0.000000 0.000000
0.630000 0.000000 0.000000
0.716667 0.000000 0.000000
0.803333 0.000000 0.000000
0.890000 0.000000 0.000000
0.976667 0.000000 0.000000
1.000000 0.000000 0.000000
1.000000 0.000000 0.000000
0.000000 0.000000 0.000000
0.000000 0.000000 0.000000
0.023333 0.000000 0.000000
0.110000 0.000000 0.000000
0.196667 0.000000 0.000000
0.283333 0.000000 0.000000
0.370000 0.000000 0.000000
0.456667 0.000000 0.000000
0.543333 0.000000 0.000000
0.630000 0.000000 0.000000
0.716667 0.000000 0.000000
0.803333 0.000000 0.000000
0.890000 0.000000 0.000000
0.976667 0.000000 0.000000
1.000000 0.000000 0.000000
1.000000 0.000000 0.000000
0.000000 0.023333 0.000000
0.000000 0.023333 0.000000
0.023333 0.023333 0.000000
0.110000 0.023333 0.000000
0.196667 0.023333 0.000000
0.283333 0.023333 0.000000
0.370000 0.023333 0.000000
0.456667 0.023333 0.000000
0.543333 0.023333 0.000000
0.630000 0.023333 0.000000
0.716667 0.023333 0.000000
0.803333 0.023333 0.000000
0.890000 0.023333 0.000000
0.976667 0.023333 0.000000
1.000000 0.023333 0.000000
1.000000 0.023333 0.000000
0.000000 0.110000 0.000000
0.000000 0.110000 0.000000
0.023333 0.110000 0.000000
0.110000 0.110000 0.000000
0.196667 0.110000 0.000000
0.283333 0.110000 0.000000
0.370000 0.110000 0.000000
0.456667 0.110000 0.000000
0.543333 0.110000 0.000000
0.630000 0.110000 0.000000
0.716667 0.110000 0.000000
0.803333 0.110000 0.000000
0.890000 0.110000 0.000000
0.976667 0.110000 0.000000
1.000000 0.110000 0.000000
1.000000 0.110000 0.000000
0.000000 0.196667 0.000000
0.000000 0.196667 0.000000
0.023333 0.196667 0.000000
0.110000 0.196667 0.000000
0.196667 0.196667 0.000000
0.283333 0.196667 0.000000
0.370000 0.196667 0.000000
0.456667 0.196667 0.000000
0.543333 0.196667 0.000000
0.630000 0.196667 0.000000
0.716667 0.196667 0.000000
0.803333 0.196667 0.000000
0.890000 0.196667 0.000000
0.976667 0.196667 0.000000
1.000000 0.196667 0.000000
1.000000 0.196667 0.000000
0.000000 0.283333 0.000000
0.000000 0.283333 0.000000
0.023333 0.283333 0.000000
0.110000 0.283333 0.000000
0.196667 0.283333 0.000000
0.283333 0.283333 0.000000
0.370000 0.283333 0.000000
0.456667 0.283333 0.000000
0.543333 0.283333 0.000000
0.630000 0.283333 0.000000
0.716667 0.283333 0.000000
0.803333 0.283333 0.000000
0.890000 0.283333 0.000000
0.976667 0.283333 0.000000
1.000000 0.283333 0.000000
1.000000 0.283333 0.000000
0.000000 0.370000 0.000000
0.000000 0.370000 0.000000
0.023333 0.370000 0.000000
0.110000 0.370000 0.000000
0.196667 0.370000 0.000000
0.283333 0.370000 0.000000
0.370000 0.370000 0.000000
0.456667 0.370000 0.000000
0.543333 0.370000 0.000000
0.630000 0.370000 0.000000
0.716667 0.370000 0.000000
0.803333 0.370000 0.000000
0.890000 0.370000 0.000000
0.976667 0.370000 0.000000
1.000000 0.370000 0.000000
1.000000 0.370000 0.000000
0.000000 0.456667 0.000000
0.000000 0.456667 0.000000
0.023333 0.456667 0.000000
0.110000 0.456667 0.000000
0.196667 0.456667 0.000000
0.283333 0.456667 0.000000
0.370000 0.456667 0.000000
0.456667 0.456667 0.000000
0.543333 0.456667 0.000000
0.630000 0.456667 0.000000
0.716667 0.456667 0.000000
0.803333 0.456667 0.000000
0.890000 0.456667 0.000000
0.976667 0.456667 0.000000
1.000000 0.456667 0.000000
1.000000 0.456667 0.000000
0.000000 0.543333 0.000000
0.000000 0.543333 0.000000
0.023333 0.543333 0.000000
0.110000 0.543333 0.000000
0.196667 0.543333 0.000000
0.283333 0.543333 0.000000
0.370000 0.543333 0.000000
0.456667 0.543333 0.000000
0.543333 0.543333 0.000000
0.630000 0.543333 0.000000
0.716667 0.543333 0.000000
0.803333 0.543333 0.000000
0.890000 0.543333 0.000000
0.976667 0.543333 0.000000
1.000000 0.543333 0.000000
1.000000 0.543333 0.000000
0.000000 0.630000 0.000000
0.000000 0.630000 0.000000
0.023333 0.630000 0.000000
0.110000 0.630000 0.000000
0.196667 0.630000 0.000000
0.283333 0.630000 0.000000
0.370000 0.630000 0.000000
0.456667 0.630000 0.000000
0.543333 0.630000 0.000000
0.630000 0.630000 0.000000
0.716667 0.630000 0.000000
0.803333 0.630000 0.000000
0.890000 0.630000 0.000000
0.976667 0.630000 0.000000
1.000000 0.630000 0.000000
1.000000 0.630000 0.000000
0.000000 0.716667 0.000000
0.000000 0.716667 0.000000
0.023333 0.716667 0.000000
0.110000 0.716667 0.000000
0.196667 0.716667 0.000000
0.283333 0.716667 0.000000
0.370000 0.716667 0.000000
0.456667 0.716667 0.000000
0.543333 0.716667 0.000000
0.630000 0.716667 0.000000
0.716667 0.716667 0.000000
0.803333 0.716667 0.000000
0.890000 0.716667 0.000000
0.976667 0.716667 0.000000
1.000000 0.716667 0.000000
1.000000 0.716667 0.000000
0.000000 0.803333 0.000000
0.000000 0.803333 0.000000
0.023333 0.803333 0.000000
0.110000 0.803333 0.000000
0.196667 0.803333 0.000000
0.283333 0.803333 0.000000
0.370000 0.803333 0.000000
0.456667 0.803333 0.000000
0.543333 0.803333 0.000000
0.630000 0.803333 0.000000
0.716667 0.803333 0.000000
0.803333 0.803333 0.000000
0.890000 0.803333 0.000000
0.976667 0.803333 0.000000
1.000000 0.803333 0.000000
1.000000 0.803333 0.000000
0.000000 0.890000 0.000000
0.000000 0.890000 0.000000
0.023333 0.890000 0.000000
0.110000 0.890000 0.000000
0.196667 0.890000 0.000000
0.283333 0.890000 0.000000
0.370000 0.890000 0.000000
0.456667 0.890000 0.000000
0.543333 0.890000 0.000000
0.630000 0.890000 0.000000
0.716667 0.890000 0.000000
0.803333 0.890000 0.000000
0.890000 0.890000 0.000000
0.976667 0.890000 0.000000
1.000000 0.890000 0.000000
1.000000 0.890000 0.000000
0.000000 0.976667 0.000000
0.000000 0.976667 0.000000
0.023333 0.976667 0.000000
0.110000 0.976667 0.000000
0.196667 0.976667 0.000000
0.283333 0.976667 0.000000
0.370000 0.976667 0.000000
0.456667 0.976667 0.000000
0.543333 0.976667 0.000000
0.630000 0.976667 0.000000
0.716667 0.976667 0.000000
0.803333 0.976667 0.000000
0.890000 0.976667 0.000000
0.976667 0.976667 0.000000
1.000000 0.976667 0.000000
1.000000 0.976667 0.000000
0.000000 1.000000 0.000000
0.000000 1.000000 0.000000
0.023333 1.000000 0.000000
0.110000 1.000000 0.000000
0.196667 1.000000 0.000000
0.283333 1.000000 0.000000
0.370000 1.000000 0.000000
0.456667 1.000000 0.000000
0.543333 1.000000 0.000000
0.630000 1.000000 0.000000
0.716667 1.000000 0.000000
0.803333 1.000000 0.000000
0.890000 1.000000 0.000000
0.976667 1.000000 0.000000
1.000000 1.000000 0.000000
1.000000 1.000000 0.000000
0.000000 1.000000 0.000000
0.000000 1.000000 0.000000
0.023333 1.000000 0.000000
0.110000 1.000000 0.000000
0.196667 1.000000 0.000000
0.283333 1.000000 0.000000
0.370000 1.000000 0.000000
0.456667 1.000000 0.000000
0.543333 1.000000 0.000000
0.630000 1.000000 0.000000
0.716667 1.000000 0.000000
0.803333 1.000000 0.000000
0.890000 1.000000 0.000000
0.976667 1.000000 0.000000
1.000000 1.000000 0.000000
1.000000 1.000000 0.000000
0.000000 0.000000 0.000000
0.000000 0.000000 0.000000
0.023333 0.000000 0.000000
0.110000 0.000000 0.000000
0.196667 0.000000 0.000000
0.283333 0.000000 0.000000
0.370000 0.000000 0.000000
0.456667 0.000000 0.000000
0.543333 0.000000 0.000000
0.630000 0.000000 0.000000
0.716667 0.000000 0.000000
0.803333 0.000000 0.000000
0.890000 0.000000 0.000000
0.976667 0.000000 0.000000
1.000000 0.000000 0.000000
1.000000 0.000000 0.000000
0.000000 0.000000 0.000000
0.000000 0.000000 0.000000
0.023333 0.000000 0.000000
0.110000 0.000000 0.000000
0.196667 0.000000 0.000000
0.283333 0.000000 0.000000
0.370000 0.000000 0.000000
0.456667 0.000000 0.000000
0.543333 0.000000 0.000000
0.630000 0.000000 0.000000
0.716667 0.000000 0.000000
0.803333 0.000000 0.000000
0.890000 0.000000 0.000000
0.976667 0.000000 0.000000
1.000000 0.000000 0.000000
1.000000 0.000000 0.000000
0.000000 0.023333 0.000000
0.000000 0.023333 0.000000
0.023333 0.023333 0.000000
0.110000 0.023333 0.000000
0.196667 0.023333 0.000000
0.283333 0.023333 0.000000
0.370000 0.023333 0.000000
0.456667 0.023333 0.000000
0.543333 0.023333 0.000000
0.630000 0.023333 0.000000
0.716667 0.023333 0.000000
0.803333 0.023333 0.000000
0.890000 0.023333 0.000000
0.976667 0.023333 0.000000
1.000000 0.023333 0.000000
1.000000 0.023333 0.000000
0.000000 0.110000 0.000000
0.000000 0.110000 0.000000
0.023333 0.110000 0.000000
0.110000 0.110000 0.000000
0.196667 0.110000 0.000000
0.283333 0.110000 0.000000
0.370000 0.110000 0.000000
0.456667 0.110000 0.000000
0.543333 0.110000 0.000000
0.630000 0.110000 0.000000
0.716667 0.110000 0.000000
0.803333 0.110000 0.000000
0.890000 0.110000 0.000000
0.976667 0.110000 0.000000
1.000000 0.110000 0.000000
1.000000 0.110000 0.000000
0.000000 0.196667 0.000000
0.000000 0.196667 0.000000
0.023333 0.196667 0.000000
0.110000 0.196667 0.000000
0.196667 0.196667 0.000000
0.283333 0.196667 0.000000
0.370000 0.196667 0.000000
0.456667 0.196667 0.000000
0.543333 0.196667 0.000000
0.630000 0.196667 0.000000
0.716667 0.196667 0.000000
0.803333 0.196667 0.000000
0.890000 0.196667 0.000000
0.976667 0.196667 0.000000
1.000000 0.196667 0.000000
1.000000 0.196667 0.000000
0.000000 0.283333 0.000000
0.000000 0.283333 0.000000
0.023333 0.283333 0.000000
0.110000 0.283333 0.000000
0.196667 0.283333 0.000000
0.283333 0.283333 0.000000
0.370000 0.283333 0.000000
0.456667 0.283333 0.000000
0.543333 0.283333 0.000000
0.630000 0.283333 0.000000
0.716667 0.283333 0.000000
0.803333 0.283333 0.000000
0.890000 0.283333 0.000000
0.976667 0.283333 0.000000
1.000000 0.283333 0.000000
1.000000 0.283333 0.000000
0.000000 0.370000 0.000000
0.000000 0.370000 0.000000
0.023333 0.370000 0.000000
0.110000 0.370000 0.000000
0.196667 0.370000 0.000000
0.283333 0.370000 0.000000
0.370000 0.370000 0.000000
0.456667 0.370000 0.000000
0.543333 0.370000 0.000000
0.630000 0.370000 0.000000
0.716667 0.370000 0.000000
0.803333 0.370000 0.000000
0.890000 0.370000 0.000000
0.976667 0.370000 0.000000
1.000000 0.370000 0.000000
1.000000 0.370000 0.000000
0.000000 0.456667 0.000000
0.000000 0.456667 0.000000
0.023333 0.456667 0.000000
0.110000 0.456667 0.000000
0.196667 0.456667 0.000000
0.283333 0.456667 0.000000
0.370000 0.456667 0.000000
0.456667 0.456667 0.000000
0.543333 0.456667 0.000000
0.630000 0.456667 0.000000
0.716667 0.456667 0.000000
0.803333 0.456667 0.000000
0.890000 0.456667 0.000000
0.976667 0.456667 0.000000
1.000000 0.456667 0.000000
1.000000 0.456667 0.000000
0.000000 0.543333 0.000000
0.000000 0.543333 0.000000
0.023333 0.543333 0.000000
0.110000 0.543333 0.000000
0.196667 0.543333 0.000000
0.283333 0.543333 0.000000
0.370000 0.543333 0.000000
0.456667 0.543333 0.000000
0.543333 0.543333 0.000000
0.630000 0.543333 0.000000
0.716667 0.543333 0.000000
0.803333 0.543333 0.000000
0.890000 0.543333 0.000000
0.976667 0.543333 0.000000
1.000000 0.543333 0.000000
1.000000 0.543333 0.000000
0.000000 0.630000 0.000000
0.000000 0.630000 0.000000
0.023333 0.630000 0.000000
0.110000 0.630000 0.000000
0.196667 0.630000 0.000000
0.283333 0.630000 0.000000
0.370000 0.630000 0.000000
0.456667 0.630000 0.000000
0.543333 0.630000 0.000000
0.630000 0.630000 0.000000
0.716667 0.630000 0.000000
0.803333 0.630000 0.000000
0.890000 0.630000 0.000000
0.976667 0.630000 0.000000
1.000000 0.630000 0.000000
1.000000 0.630000 0.000000
0.000000 0.716667 0.000000
0.000000 0.716667 0.000000
0.023333 0.716667 0.000000
0.110000 0.716667 0.000000
0.196667 0.716667 0.000000
0.283333 0.716667 0.000000
0.370000 0.716667 0.000000
0.456667 0.716667 0.000000
0.543333 0.716667 0.000000
0.630000 0.716667 0.000000
0.716667 0.716667 0.000000
0.803333 0.716667 0.000000
0.890000 0.716667 0.000000
0.976667 0.716667 0.000000
1.000000 0.716667 0.000000
1.000000 0.716667 0.000000
0.000000 0.803333 0.000000
0.000000 0.803333 0.000000
0.023333 0.803333 0.000000
0.110000 0.803333 0.000000
0.196667 0.803333 0.000000
0.283333 0.803333 0.000000
0.370000 0.803333 0.000000
0.456667 0.803333 0.000000
0.543333 0.803333 0.000000
0.630000 0.803333 0.000000
0.716667 0.803333 0.000000
0.803333 0.803333 0.000000
0.890000 0.803333 0.000000
0.976667 0.803333 0.000000
1.000000 0.803333 0.000000
1.000000 0.803333 0.000000
0.000000 0.890000 0.000000
0.000000 0.890000 0.000000
0.023333 0.890000 0.000000
0.110000 0.890000 0.000000
0.196667 0.890000 0.000000
0.283333 0.890000 0.000000
0.370000 0.890000 0.000000
0.456667 0.890000 0.000000
0.543333 0.890000 0.000000
0.630000 0.890000 0.000000
0.716667 0.890000 0.000000
0.803333 0.890000 0.000000
0.890000 0.890000 0.000000
0.976667 0.890000 0.000000
1.000000 0.890000 0.000000
1.000000 0.890000 0.000000
0.000000 0.976667 0.000000
0.000000 0.976667 0.000000
0.023333 0.976667 0.000000
0.110000 0.976667 0.000000
0.196667 0.976667 0.000000
0.283333 0.976667 0.000000
0.370000 0.976667 0.000000
0.456667 0.976667 0.000000
0.543333 0.976667 0.000000
0.630000 0.976667 0.000000
0.716667 0.976667 0.000000
0.803333 0.976667 0.000000
0.890000 0.976667 0.000000
0.976667 0.976667 0.000000
1.000000 0.976667 0.000000
1.000000 0.976667 0.000000
0.000000 1.000000 0.000000
0.000000 1.000000 0.000000
0.023333 1.000000 0.000000
0.110000 1.000000 0.000000
0.196667 1.000000 0.000000
0.283333 1.000000 0.000000
0.370000 1.000000 0.000000
0.456667 1.000000 0.000000
0.543333 1.000000 0.000000
0.630000 1.000000 0.000000
0.716667 1.000000 0.000000
0.803333 1.000000 0.000000
0.890000 1.000000 0.000000
0.976667 1.000000 0.000000
1.000000 1.000000 0.000000
1.000000 1.000000 0.000000
0.000000 1.000000 0.000000
0.000000 1.000000 0.000000
0.023333 1.000000 0.000000
0.110000 1.000000 0.000000
0.196667 1.000000 0.000000
0.283333 1.000000 0.000000
0.370000 1.000000 0.000000
0.456667 1.000000 0.000000
0.543333 1.000000 0.000000
0.630000 1.000000 0.000000
0.716667 1.000000 0.000000
0.803333 1.000000 0.000000
0.890000 1.000000 0.000000
0.976667 1.000000 0.000000
1.000000 1.000000 0.000000
1.000000 1.000000 0.000000
0.000000 0.000000 0.023333
0.000000 0.000000 0.023333
0.023333 0.000000 0.023333
0.110000 0.000000 0.023333
0.196667 0.000000 0.023333
0.283333 0.000000 0.023333
0.370000 0.000000 0.023333
0.456667 0.000000 0.023333
0.543333 0.000000 0.023333
0.630000 0.000000 0.023333
0.716667 0.000000 0.023333
0.803333 0.000000 0.023333
0.890000 0.000000 0.023333
0.976667 0.000000 0.023333
1.000000 0.000000 0.023333
1.000000 0.000000 0.023333
0.000000 0.000000 0.023333
0.000000 0.000000 0.023333
0.023333 0.000000 0.023333
0.110000 0.000000 0.023333
0.196667 0.000000 0.023333
0.283333 0.000000 0.023333
0.370000 0.000000 0.023333
0.456667 0.000000 0.023333
0.543333 0.000000 0.023333
0.630000 0.000000 0.023333
0.716667 0.000000 0.023333
0.803333 0.000000 0.023333
0.890000 0.000000 0.023333
0.976667 0.000000 0.023333
1.000000 0.000000 0.023333
1.000000 0.000000 0.023333
0.000000 0.023333 0.023333
0.000000 0.023333 0.023333
0.023333 0.023333 0.023333
0.110000 0.023333 0.023333
0.196667 0.023333 0.023333
0.283333 0.023333 0.023333
0.370000 0.023333 0.023333
0.456667 0.023333 0.023333
0.543333 0.023333 0.023333
0.630000 0.023333 0.023333
0.716667 0.023333 0.023333
0.803333 0.023333 0.023333
0.890000 0.023333 0.023333
0.976667 0.023333 0.023333
1.000000 0.023333 0.023333
1.000000 0.023333 0.023333
0.000000 0.110000 0.023333
0.000000 0.110000 0.023333
0.023333 0.110000 0.023333
0.110000 0.110000 0.023333
0.196667 0.110000 0.023333
0.283333 0.110000 0.023333
0.370000 0.110000 0.023333
0.456667 0.110000 0.023333
0.543333 0.110000 0.023333
0.630000 0.110000 0.023333
0.716667 0.110000 0.023333
0.803333 0.110000 0.023333
0.890000 0.110000 0.023333
0.976667 0.110000 0.023333
1.000000 0.110000 0.023333
1.000000 0.110000 0.023333
0.000000 0.196667 0.023333
0.000000 0.196667 0.023333
0.023333 0.196667 0.023333
0.110000 0.196667 0.023333
0.196667 0.196667 0.023333
0.283333 0.196667 0.023333
0.370000 0.196667 0.023333
0.456667 0.196667 0.023333
0.543333 0.196667 0.023333
0.630000 0.196667 0.023333
0.716667 0.196667 0.023333
0.803333 0.196667 0.023333
0.890000 0.196667 0.023333
0.976667 0.196667 0.023333
1.000000 0.196667 0.023333
1.000000 0.196667 0.023333
0.000000 0.283333 0.023333
0.000000 0.283333 0.023333
0.023333 0.283333 0.023333
0.110000 0.283333 0.023333
0.196667 0.283333 0.023333
0.283333 0.283333 0.023333
0.370000 0.283333 0.023333
0.456667 0.283333 0.023333
0.543333 0.283333 0.023333
0.630000 0.283333 0.023333
0.716667 0.283333 0.023333
0.803333 0.283333 0.023333
0.890000 0.283333 0.023333
0.976667 0.283333 0.023333
1.000000 0.283333 0.023333
1.000000 0.283333 0.023333
0.000000 0.370000 0.023333
0.000000 0.370000 0.023333
0.023333 0.370000 0.023333
0.110000 0.370000 0.023333
0.196667 0.370000 0.023333
0.283333 0.370000 0.023333
0.370000 0.370000 0.023333
0.456667 0.370000 0.023333
0.543333 0.370000 0.023333
0.630000 0.370000 0.023333
0.716667 0.370000 0.023333
0.803333 0.370000 0.023333
0.890000 0.370000 0.023333
0.976667 0.370000 0.023333
1.000000 0.370000 0.023333
1.000000 0.370000 0.023333
0.000000 0.456667 0.023333
0.000000 0.456667 0.023333
0.023333 0.456667 0.023333
0.110000 0.456667 0.023333
0.196667 0.456667 0.023333
0.283333 0.456667 0.023333
0.370000 0.456667 0.023333
0.456667 0.456667 0.023333
0.543333 0.456667 0.023333
0.630000 0.456667 0.023333
0.716667 0.456667 0.023333
0.803333 0.456667 0.023333
0.890000 0.456667 0.023333
0.976667 0.456667 0.023333
1.000000 0.456667 0.023333
1.000000 0.456667 0.023333
0.000000 0.543333 0.023333
0.000000 0.543333 0.023333
0.023333 0.543333 0.023333
0.110000 0.543333 0.023333
0.196667 0.543333 0.023333
0.283333 0.543333 0.023333
0.370000 0.543333 0.023333
0.456667 0.543333 0.023333
0.543333 0.543333 0.023333
0.630000 0.543333 0.023333
0.716667 0.543333 0.023333
0.803333 0.543333 0.023333
0.890000 0.543333 0.023333
0.976667 0.543333 0.023333
1.000000 0.543333 0.023333
1.000000 0.543333 0.023333
0.000000 0.630000 0.023333
0.000000 0.630000 0.023333
0.023333 0.630000 0.023333
0.110000 0.630000 0.023333
0.196667 0.630000 0.023333
0.283333 0.630000 0.023333
0.370000 0.630000 0.023333
0.456667 0.630000 0.023333
0.543333 0.630000 0.023333
0.630000 0.630000 0.023333
0.716667 0.630000 0.023333
0.803333 0.630000 0.023333
0.890000 0.630000 0.023333
0.976667 0.630000 0.023333
1.000000 0.630000 0.023333
1.000000 0.630000 0.023333
0.000000 0.716667 0.023333
0.000000 0.716667 0.023333
0.023333 0.716667 0.023333
0.110000 0.716667 0.023333
0.196667 0.716667 0.023333
0.283333 0.716667 0.023333
0.370000 0.716667 0.023333
0.456667 0.716667 0.023333
0.543333 0.716667 0.023333
0.630000 0.716667 0.023333
0.716667 0.716667 0.023333
0.803333 0.716667 0.023333
0.890000 0.716667 0.023333
0.976667 0.716667 0.023333
1.000000 0.716667 0.023333
1.000000 0.716667 0.023333
0.000000 0.803333 0.023333
0.000000 0.803333 0.023333
0.023333 0.803333 0.023333
0.110000 0.803333 0.023333
0.196667 0.803333 0.023333
0.283333 0.803333 0.023333
0.370000 0.803333 0.023333
0.456667 0.803333 0.023333
0.543333 0.803333 0.023333
0.630000 0.803333 0.023333
0.716667 0.803333 0.023333
0.803333 0.803333 0.023333
0.890000 0.803333 0.023333
0.976667 0.803333 0.023333
1.000000 0.803333 0.023333
1.000000 0.803333 0.023333
0.000000 0.890000 0.023333
0.000000 0.890000 0.023333
0.023333 0.890000 0.023333
0.110000 0.890000 0.023333
0.196667 0.890000 0.023333
0.283333 0.890000 0.023333
0.370000 0.890000 0.023333
0.456667 0.890000 0.023333
0.543333 0.890000 0.023333
0.630000 0.890000 0.023333
0.716667 0.890000 0.023333
0.803333 0.890000 0.023333
0.890000 0.890000 0.023333
0.976667 0.890000 0.023333
1.000000 0.890000 0.023333
1.000000 0.890000 0.023333
0.000000 0.976667 0.023333
0.000000 0.976667 0.023333
0.023333 0.976667 0.023333
0.110000 0.976667 0.023333
0.196667 0.976667 0.023333
0.283333 0.976667 0.023333
0.370000 0.976667 0.023333
0.456667 0.976667 0.023333
0.543333 0.976667 0.023333
0.630000 0.976667 0.023333
0.716667 0.976667 0.023333
0.803333 0.976667 0.023333
0.890000 0.976667 0.023333
0.976667 0.976667 0.023333
1.000000 0.976667 0.023333
1.000000 0.976667 0.023333
0.000000 1.000000 0.023333
0.000000 1.000000 0.023333
0.023333 1.000000 0.023333
0.110000 1.000000 0.023333
0.196667 1.000000 0.023333
0.283333 1.000000 0.023333
0.370000 1.000000 0.023333
0.456667 1.000000 0.023333
0.543333 1.000000 0.023333
0.630000 1.000000 0.023333
0.716667 1.000000 0.023333
0.803333 1.000000 0.023333
0.890000 1.000000 0.023333
0.976667 1.000000 0.023333
1.000000 1.000000 0.023333
1.000000 1.000000 0.023333
0.000000 1.000000 0.023333
0.000000 1.000000 0.023333
0.023333 1.000000 0.023333
0.110000 1.000000 0.023333
0.196667 1.000000 0.023333
0.283333 1.000000 0.023333
0.370000 1.000000 0.023333
0.456667 1.000000 0.023333
0.543333 1.000000 0.023333
0.630000 1.000000 0.023333
0.716667 1.000000 0.023333
0.803333 1.000000 0.023333
0.890000 1.000000 0.023333
0.976667 1.000000 0.023333
1.000000 1.000000 0.023333
1.000000 1.000000 0.023333
0.000000 0.000000 0.110000
0.000000 0.000000 0.110000
0.023333 0.000000 0.110000
0.110000 0.000000 0.110000
0.196667 0.000000 0.110000
0.283333 0.000000 0.110000
0.370000 0.000000 0.110000
0.456667 0.000000 0.110000
0.543333 0.000000 0.110000
0.630000 0.000000 0.110000
0.716667 0.000000 0.110000
0.803333 0.000000 0.110000
0.890000 0.000000 0.110000
0.976667 0.000000 0.110000
1.000000 0.000000 0.110000
1.000000 0.000000 0.110000
0.000000 0.000000 0.110000
0.000000 0.000000 0.110000
0.023333 0.000000 0.110000
0.110000 0.000000 0.110000
0.196667 0.000000 0.110000
0.283333 0.000000 0.110000
0.370000 0.000000 0.110000
0.456667 0.000000 0.110000
0.543333 0.000000 0.110000
0.630000 0.000000 0.110000
0.716667 0.000000 0.110000
0.803333 0.000000 0.110000
0.890000 0.000000 0.110000
0.976667 0.000000 0.110000
1.000000 0.000000 0.110000
1.000000 0.000000 0.110000
0.000000 0.023333 0.110000
0.000000 0.023333 0.110000
0.023333 0.023333 0.110000
0.110000 0.023333 0.110000
0.196667 0.023333 0.110000
0.283333 0.023333 0.110000
0.370000 0.023333 0.110000
0.456667 0.023333 0.110000
0.543333 0.023333 0.110000
0.630000 0.023333 0.110000
0.716667 0.023333 0.110000
0.803333 0.023333 0.110000
0.890000 0.023333 0.110000
0.976667 0.023333 0.110000
1.000000 0.023333 0.110000
1.000000 0.023333 0.110000
0.000000 0.110000 0.110000
0.000000 0.110000 0.110000
0.023333 0.110000 0.110000
0.110000 0.110000 0.110000
0.196667 0.110000 0.110000
0.283333 0.110000 0.110000
0.370000 0.110000 0.110000
0.456667 0.110000 0.110000
0.543333 0.110000 0.110000
0.630000 0.110000 0.110000
0.716667 0.110000 0.110000
0.803333 0.110000 0.110000
0.890000 0.110000 0.110000
0.976667 0.110000 0.110000
1.000000 0.110000 0.110000
1.000000 0.110000 0.110000
0.000000 0.196667 0.110000
0.000000 0.196667 0.110000
0.023333 0.196667 0.110000
0.110000 0.196667 0.110000
0.196667 0.196667 0.110000
0.283333 0.196667 0.110000
0.370000 0.196667 0.110000
0.456667 0.196667 0.110000
0.543333 0.196667 0.110000
0.630000 0.196667 0.110000
0.716667 0.196667 0.110000
0.803333 0.196667 0.110000
0.890000 0.196667 0.110000
0.976667 0.196667 0.110000
1.000000 0.196667 0.110000
1.000000 0.196667 0.110000
0.000000 0.283333 0.110000
0.000000 0.283333 0.110000
0.023333 0.283333 0.110000
0.110000 0.283333 0.110000
0.196667 0.283333 0.110000
0.283333 0.283333 0.110000
0.370000 0.283333 0.110000
0.456667 0.283333 0.110000
0.543333 0.283333 0.110000
0.630000 0.283333 0.110000
0.716667 0.283333 0.110000
0.803333 0.283333 0.110000
0.890000 0.283333 0.110000
0.976667 0.283333 0.110000
1.000000 0.283333 0.110000
1.000000 0.283333 0.110000
0.000000 0.370000 0.110000
0.000000 0.370000 0.110000
0.023333 0.370000 0.110000
0.110000 0.370000 0.110000
0.196667 0.370000 0.110000
0.283333 0.370000 0.110000
0.370000 0.370000 0.110000
0.456667 0.370000 0.110000
0.543333 0.370000 0.110000
0.630000 0.370000 0.110000
0.716667 0.370000 0.110000
0.803333 0.370000 0.110000
0.890000 0.370000 0.110000
0.976667 0.370000 0.110000
1.000000 0.370000 0.110000
1.000000 0.370000 0.110000
0.000000 0.456667 0.110000
0.000000 0.456667 0.110000
0.023333 0.456667 0.110000
0.110000 0.456667 0.110000
0.196667 0.456667 0.110000
0.283333 0.456667 0.110000
0.370000 0.456667 0.110000
