resources/luts/cool.cube
TITLE "cool"
LUT_3D_SIZE 6
0.000000 0.000000 0.050000
0.130000 0.000000 0.050000
0.310000 0.000000 0.050000
0.490000 0.000000 0.050000
0.670000 0.000000 0.050000
0.850000 0.000000 0.050000
0.000000 0.200000 0.050000
0.130000 0.200000 0.050000
0.310000 0.200000 0.050000
0.490000 0.200000 0.050000
0.670000 0.200000 0.050000
0.850000 0.200000 0.050000
0.000000 0.400000 0.050000
0.130000 0.400000 0.050000
0.310000 0.400000 0.050000
0.490000 0.400000 0.050000
0.670000 0.400000 0.050000
0.850000 0.400000 0.050000
0.000000 0.600000 0.050000
0.130000 0.600000 0.050000
0.310000 0.600000 0.050000
0.490000 0.600000 0.050000
0.670000 0.600000 0.050000
0.850000 0.600000 0.050000
0.000000 0.800000 0.050000
0.130000 0.800000 0.050000
0.310000 0.800000 0.050000
0.490000 0.800000 0.050000
0.670000 0.800000 0.050000
0.850000 0.800000 0.050000
0.000000 1.000000 0.050000
0.130000 1.000000 0.050000
0.310000 1.000000 0.050000
0.490000 1.000000 0.050000
0.670000 1.000000 0.050000
0.850000 1.000000 0.050000
0.000000 0.000000 0.260000
0.130000 0.000000 0.260000
0.310000 0.000000 0.260000
0.490000 0.000000 0.260000
0.670000 0.000000 0.260000
0.850000 0.000000 0.260000
0.000000 0.200000 0.260000
0.130000 0.200000 0.260000
0.310000 0.200000 0.260000
0.490000 0.200000 0.260000
0.670000 0.200000 0.260000
0.850000 0.200000 0.260000
0.000000 0.400000 0.260000
0.130000 0.400000 0.260000
0.310000 0.400000 0.260000
0.490000 0.400000 0.260000
0.670000 0.400000 0.260000
0.850000 0.400000 0.260000
0.000000 0.600000 0.260000
0.130000 0.600000 0.260000
0.310000 0.600000 0.260000
0.490000 0.600000 0.260000
0.670000 0.600000 0.260000
0.850000 0.600000 0.260000
0.000000 0.800000 0.260000
0.130000 0.800000 0.260000
0.310000 0.800000 0.260000
0.490000 0.800000 0.260000
0.670000 0.800000 0.260000
0.850000 0.800000 0.260000
0.000000 1.000000 0.260000
0.130000 1.000000 0.260000
0.310000 1.000000 0.260000
0.490000 1.000000 0.260000
0.670000 1.000000 0.260000
0.850000 1.000000 0.260000
0.000000 0.000000 0.470000
0.130000 0.000000 0.470000
0.310000 0.000000 0.470000
0.490000 0.000000 0.470000
0.670000 0.000000 0.470000
0.850000 0.000000 0.470000
0.000000 0.200000 0.470000
0.130000 0.200000 0.470000
0.310000 0.200000 0.470000
0.490000 0.200000 0.470000
0.670000 0.200000 0.470000
0.850000 0.200000 0.470000
0.000000 0.400000 0.470000
0.130000 0.400000 0.470000
0.310000 0.400000 0.470000
0.490000 0.400000 0.470000
0.670000 0.400000 0.470000
0.850000 0.400000 0.470000
0.000000 0.600000 0.470000
0.130000 0.600000 0.470000
0.310000 0.600000 0.470000
0.490000 0.600000 0.470000
0.670000 0.600000 0.470000
0.850000 0.600000 0.470000
0.000000 0.800000 0.470000
0.130000 0.800000 0.470000
0.310000 0.800000 0.470000
0.490000 0.800000 0.470000
0.670000 0.800000 0.470000
0.850000 0.800000 0.470000
0.000000 1.000000 0.470000
0.130000 1.000000 0.470000
0.310000 1.000000 0.470000
0.490000 1.000000 0.470000
0.670000 1.000000 0.470000
0.850000 1.000000 0.470000
0.000000 0.000000 0.680000
0.130000 0.000000 0.680000
0.310000 0.000000 0.680000
0.490000 0.000000 0.680000
0.670000 0.000000 0.680000
0.850000 0.000000 0.680000
0.000000 0.200000 0.680000
0.130000 0.200000 0.680000
0.310000 0.200000 0.680000
0.490000 0.200000 0.680000
0.670000 0.200000 0.680000
0.850000 0.200000 0.680000
0.000000 0.400000 0.680000
0.130000 0.400000 0.680000
0.310000 0.400000 0.680000
0.490000 0.400000 0.680000
0.670000 0.400000 0.680000
0.850000 0.400000 0.680000
0.000000 0.600000 0.680000
0.130000 0.600000 0.680000
0.310000 0.600000 0.680000
0.490000 0.600000 0.680000
0.670000 0.600000 0.680000
0.850000 0.600000 0.680000
0.000000 0.800000 0.680000
0.130000 0.800000 0.680000
0.310000 0.800000 0.680000
0.490000 0.800000 0.680000
0.670000 0.800000 0.680000
0.850000 0.800000 0.680000
0.000000 1.000000 0.680000
0.130000 1.000000 0.680000
0.310000 1.000000 0.680000
0.490000 1.000000 0.680000
0.670000 1.000000 0.680000
0.850000 1.000000 0.680000
0.000000 0.000000 0.890000
0.130000 0.000000 0.890000
0.310000 0.000000 0.890000
0.490000 0.000000 0.890000
0.670000 0.000000 0.890000
0.850000 0.000000 0.890000
0.000000 0.200000 0.890000
0.130000 0.200000 0.890000
0.310000 0.200000 0.890000
0.490000 0.200000 0.890000
0.670000 0.200000 0.890000
0.850000 0.200000 0.890000
0.000000 0.400000 0.890000
0.130000 0.400000 0.890000
0.310000 0.400000 0.890000
0.490000 0.400000 0.890000
0.670000 0.400000 0.890000
0.850000 0.400000 0.890000
0.000000 0.600000 0.890000
0.130000 0.600000 0.890000
0.310000 0.600000 0.890000
0.490000 0.600000 0.890000
0.670000 0.600000 0.890000
0.850000 0.600000 0.890000
0.000000 0.800000 0.890000
0.130000 0.800000 0.890000
0.310000 0.800000 0.890000
0.490000 0.800000 0.890000
0.670000 0.800000 0.890000
0.850000 0.800000 0.890000
0.000000 1.000000 0.890000
0.130000 1.000000 0.890000
0.310000 1.000000 0.890000
0.490000 1.000000 0.890000
0.670000 1.000000 0.890000
0.850000 1.000000 0.890000
0.000000 0.000000 1.000000
0.130000 0.000000 1.000000
0.310000 0.000000 1.000000
0.490000 0.000000 1.000000
0.670000 0.000000 1.000000
0.850000 0.000000 1.000000
0.000000 0.200000 1.000000
0.130000 0.200000 1.000000
0.310000 0.200000 1.000000
0.490000 0.200000 1.000000
0.670000 0.200000 1.000000
0.850000 0.200000 1.000000
0.000000 0.400000 1.000000
0.130000 0.400000 1.000000
0.310000 0.400000 1.000000
0.490000 0.400000 1.000000
0.670000 0.400000 1.000000
0.850000 0.400000 1.000000
0.000000 0.600000 1.000000
0.130000 0.600000 1.000000
0.310000 0.600000 1.000000
0.490000 0.600000 1.000000
0.670000 0.600000 1.000000
0.850000 0.600000 1.000000
0.000000 0.800000 1.000000
0.130000 0.800000 1.000000
0.310000 0.800000 1.000000
0.490000 0.800000 1.000000
0.670000 0.800000 1.000000
0.850000 0.800000 1.000000
0.000000 1.000000 1.000000
0.130000 1.000000 1.000000
0.310000 1.000000 1.000000
0.490000 1.000000 1.000000
0.670000 1.000000 1.000000
0.850000 1.000000 1.000000
