resources/luts/cool.cube
TITLE "cool"
LUT_3D_SIZE 16
0.000000 0.000000 0.050000
0.010000 0.000000 0.050000
0.070000 0.000000 0.050000
0.130000 0.000000 0.050000
0.190000 0.000000 0.050000
0.250000 0.000000 0.050000
0.310000 0.000000 0.050000
0.370000 0.000000 0.050000
0.430000 0.000000 0.050000
0.490000 0.000000 0.050000
0.550000 0.000000 0.050000
0.610000 0.000000 0.050000
0.670000 0.000000 0.050000
0.730000 0.000000 0.050000
0.790000 0.000000 0.050000
0.850000 0.000000 0.050000
0.000000 0.066667 0.050000
0.010000 0.066667 0.050000
0.070000 0.066667 0.050000
0.130000 0.066667 0.050000
0.190000 0.066667 0.050000
0.250000 0.066667 0.050000
0.310000 0.066667 0.050000
0.370000 0.066667 0.050000
0.430000 0.066667 0.050000
0.490000 0.066667 0.050000
0.550000 0.066667 0.050000
0.610000 0.066667 0.050000
0.670000 0.066667 0.050000
0.730000 0.066667 0.050000
0.790000 0.066667 0.050000
0.850000 0.066667 0.050000
0.000000 0.133333 0.050000
0.010000 0.133333 0.050000
0.070000 0.133333 0.050000
0.130000 0.133333 0.050000
0.190000 0.133333 0.050000
0.250000 0.133333 0.050000
0.310000 0.133333 0.050000
0.370000 0.133333 0.050000
0.430000 0.133333 0.050000
0.490000 0.133333 0.050000
0.550000 0.133333 0.050000
0.610000 0.133333 0.050000
0.670000 0.133333 0.050000
0.730000 0.133333 0.050000
0.790000 0.133333 0.050000
0.850000 0.133333 0.050000
0.000000 0.200000 0.050000
0.010000 0.200000 0.050000
0.070000 0.200000 0.050000
0.130000 0.200000 0.050000
0.190000 0.200000 0.050000
0.250000 0.200000 0.050000
0.310000 0.200000 0.050000
0.370000 0.200000 0.050000
0.430000 0.200000 0.050000
0.490000 0.200000 0.050000
0.550000 0.200000 0.050000
0.610000 0.200000 0.050000
0.670000 0.200000 0.050000
0.730000 0.200000 0.050000
0.790000 0.200000 0.050000
0.850000 0.200000 0.050000
0.000000 0.266667 0.050000
0.010000 0.266667 0.050000
0.070000 0.266667 0.050000
0.130000 0.266667 0.050000
0.190000 0.266667 0.050000
0.250000 0.266667 0.050000
0.310000 0.266667 0.050000
0.370000 0.266667 0.050000
0.430000 0.266667 0.050000
0.490000 0.266667 0.050000
0.550000 0.266667 0.050000
0.610000 0.266667 0.050000
0.670000 0.266667 0.050000
0.730000 0.266667 0.050000
0.790000 0.266667 0.050000
0.850000 0.266667 0.050000
0.000000 0.333333 0.050000
0.010000 0.333333 0.050000
0.070000 0.333333 0.050000
0.130000 0.333333 0.050000
0.190000 0.333333 0.050000
0.250000 0.333333 0.050000
0.310000 0.333333 0.050000
0.370000 0.333333 0.050000
0.430000 0.333333 0.050000
0.490000 0.333333 0.050000
0.550000 0.333333 0.050000
0.610000 0.333333 0.050000
0.670000 0.333333 0.050000
0.730000 0.333333 0.050000
0.790000 0.333333 0.050000
0.850000 0.333333 0.050000
0.000000 0.400000 0.050000
0.010000 0.400000 0.050000
0.070000 0.400000 0.050000
0.130000 0.400000 0.050000
0.190000 0.400000 0.050000
0.250000 0.400000 0.050000
0.310000 0.400000 0.050000
0.370000 0.400000 0.050000
0.430000 0.400000 0.050000
0.490000 0.400000 0.050000
0.550000 0.400000 0.050000
0.610000 0.400000 0.050000
0.670000 0.400000 0.050000
0.730000 0.400000 0.050000
0.790000 0.400000 0.050000
0.850000 0.400000 0.050000
0.000000 0.466667 0.050000
0.010000 0.466667 0.050000
0.070000 0.466667 0.050000
0.130000 0.466667 0.050000
0.190000 0.466667 0.050000
0.250000 0.466667 0.050000
0.310000 0.466667 0.050000
0.370000 0.466667 0.050000
0.430000 0.466667 0.050000
0.490000 0.466667 0.050000
0.550000 0.466667 0.050000
0.610000 0.466667 0.050000
0.670000 0.466667 0.050000
0.730000 0.466667 0.050000
0.790000 0.466667 0.050000
0.850000 0.466667 0.050000
0.000000 0.533333 0.050000
0.010000 0.533333 0.050000
0.070000 0.533333 0.050000
0.130000 0.533333 0.050000
0.190000 0.533333 0.050000
0.250000 0.533333 0.050000
0.310000 0.533333 0.050000
0.370000 0.533333 0.050000
0.430000 0.533333 0.050000
0.490000 0.533333 0.050000
0.550000 0.533333 0.050000
0.610000 0.533333 0.050000
0.670000 0.533333 0.050000
0.730000 0.533333 0.050000
0.790000 0.533333 0.050000
0.850000 0.533333 0.050000
0.000000 0.600000 0.050000
0.010000 0.600000 0.050000
0.070000 0.600000 0.050000
0.130000 0.600000 0.050000
0.190000 0.600000 0.050000
0.250000 0.600000 0.050000
0.310000 0.600000 0.050000
0.370000 0.600000 0.050000
0.430000 0.600000 0.050000
0.490000 0.600000 0.050000
0.550000 0.600000 0.050000
0.610000 0.600000 0.050000
0.670000 0.600000 0.050000
0.730000 0.600000 0.050000
0.790000 0.600000 0.050000
0.850000 0.600000 0.050000
0.000000 0.666667 0.050000
0.010000 0.666667 0.050000
0.070000 0.666667 0.050000
0.130000 0.666667 0.050000
0.190000 0.666667 0.050000
0.250000 0.666667 0.050000
0.310000 0.666667 0.050000
0.370000 0.666667 0.050000
0.430000 0.666667 0.050000
0.490000 0.666667 0.050000
0.550000 0.666667 0.050000
0.610000 0.666667 0.050000
0.670000 0.666667 0.050000
0.730000 0.666667 0.050000
0.790000 0.666667 0.050000
0.850000 0.666667 0.050000
0.000000 0.733333 0.050000
0.010000 0.733333 0.050000
0.070000 0.733333 0.050000
0.130000 0.733333 0.050000
0.190000 0.733333 0.050000
0.250000 0.733333 0.050000
0.310000 0.733333 0.050000
0.370000 0.733333 0.050000
0.430000 0.733333 0.050000
0.490000 0.733333 0.050000
0.550000 0.733333 0.050000
0.610000 0.733333 0.050000
0.670000 0.733333 0.050000
0.730000 0.733333 0.050000
0.790000 0.733333 0.050000
0.850000 0.733333 0.050000
0.000000 0.800000 0.050000
0.010000 0.800000 0.050000
0.070000 0.800000 0.050000
0.130000 0.800000 0.050000
0.190000 0.800000 0.050000
0.250000 0.800000 0.050000
0.310000 0.800000 0.050000
0.370000 0.800000 0.050000
0.430000 0.800000 0.050000
0.490000 0.800000 0.050000
0.550000 0.800000 0.050000
0.610000 0.800000 0.050000
0.670000 0.800000 0.050000
0.730000 0.800000 0.050000
0.790000 0.800000 0.050000
0.850000 0.800000 0.050000
0.000000 0.866667 0.050000
0.010000 0.866667 0.050000
0.070000 0.866667 0.050000
0.130000 0.866667 0.050000
0.190000 0.866667 0.050000
0.250000 0.866667 0.050000
0.310000 0.866667 0.050000
0.370000 0.866667 0.050000
0.430000 0.866667 0.050000
0.490000 0.866667 0.050000
0.550000 0.866667 0.050000
0.610000 0.866667 0.050000
0.670000 0.866667 0.050000
0.730000 0.866667 0.050000
0.790000 0.866667 0.050000
0.850000 0.866667 0.050000
0.000000 0.933333 0.050000
0.010000 0.933333 0.050000
0.070000 0.933333 0.050000
0.130000 0.933333 0.050000
0.190000 0.933333 0.050000
0.250000 0.933333 0.050000
0.310000 0.933333 0.050000
0.370000 0.933333 0.050000
0.430000 0.933333 0.050000
0.490000 0.933333 0.050000
0.550000 0.933333 0.050000
0.610000 0.933333 0.050000
0.670000 0.933333 0.050000
0.730000 0.933333 0.050000
0.790000 0.933333 0.050000
0.850000 0.933333 0.050000
0.000000 1.000000 0.050000
0.010000 1.000000 0.050000
0.070000 1.000000 0.050000
0.130000 1.000000 0.050000
0.190000 1.000000 0.050000
0.250000 1.000000 0.050000
0.310000 1.000000 0.050000
0.370000 1.000000 0.050000
0.430000 1.000000 0.050000
0.490000 1.000000 0.050000
0.550000 1.000000 0.050000
0.610000 1.000000 0.050000
0.670000 1.000000 0.050000
0.730000 1.000000 0.050000
0.790000 1.000000 0.050000
0.850000 1.000000 0.050000
0.000000 0.000000 0.120000
0.010000 0.000000 0.120000
0.070000 0.000000 0.120000
0.130000 0.000000 0.120000
0.190000 0.000000 0.120000
0.250000 0.000000 0.120000
0.310000 0.000000 0.120000
0.370000 0.000000 0.120000
0.430000 0.000000 0.120000
0.490000 0.000000 0.120000
0.550000 0.000000 0.120000
0.610000 0.000000 0.120000
0.670000 0.000000 0.120000
0.730000 0.000000 0.120000
0.790000 0.000000 0.120000
0.850000 0.000000 0.120000
0.000000 0.066667 0.120000
0.010000 0.066667 0.120000
0.070000 0.066667 0.120000
0.130000 0.066667 0.120000
0.190000 0.066667 0.120000
0.250000 0.066667 0.120000
0.310000 0.066667 0.120000
0.370000 0.066667 0.120000
0.430000 0.066667 0.120000
0.490000 0.066667 0.120000
0.550000 0.066667 0.120000
0.610000 0.066667 0.120000
0.670000 0.066667 0.120000
0.730000 0.066667 0.120000
0.790000 0.066667 0.120000
0.850000 0.066667 0.120000
0.000000 0.133333 0.120000
0.010000 0.133333 0.120000
0.070000 0.133333 0.120000
0.130000 0.133333 0.120000
0.190000 0.133333 0.120000
0.250000 0.133333 0.120000
0.310000 0.133333 0.120000
0.370000 0.133333 0.120000
0.430000 0.133333 0.120000
0.490000 0.133333 0.120000
0.550000 0.133333 0.120000
0.610000 0.133333 0.120000
0.670000 0.133333 0.120000
0.730000 0.133333 0.120000
0.790000 0.133333 0.120000
0.850000 0.133333 0.120000
0.000000 0.200000 0.120000
0.010000 0.200000 0.120000
0.070000 0.200000 0.120000
0.130000 0.200000 0.120000
0.190000 0.200000 0.120000
0.250000 0.200000 0.120000
0.310000 0.200000 0.120000
0.370000 0.200000 0.120000
0.430000 0.200000 0.120000
0.490000 0.200000 0.120000
0.550000 0.200000 0.120000
0.610000 0.200000 0.120000
0.670000 0.200000 0.120000
0.730000 0.200000 0.120000
0.790000 0.200000 0.120000
0.850000 0.200000 0.120000
0.000000 0.266667 0.120000
0.010000 0.266667 0.120000
0.070000 0.266667 0.120000
0.130000 0.266667 0.120000
0.190000 0.266667 0.120000
0.250000 0.266667 0.120000
0.310000 0.266667 0.120000
0.370000 0.266667 0.120000
0.430000 0.266667 0.120000
0.490000 0.266667 0.120000
0.550000 0.266667 0.120000
0.610000 0.266667 0.120000
0.670000 0.266667 0.120000
0.730000 0.266667 0.120000
0.790000 0.266667 0.120000
0.850000 0.266667 0.120000
0.000000 0.333333 0.120000
0.010000 0.333333 0.120000
0.070000 0.333333 0.120000
0.130000 0.333333 0.120000
0.190000 0.333333 0.120000
0.250000 0.333333 0.120000
0.310000 0.333333 0.120000
0.370000 0.333333 0.120000
0.430000 0.333333 0.120000
0.490000 0.333333 0.120000
0.550000 0.333333 0.120000
0.610000 0.333333 0.120000
0.670000 0.333333 0.120000
0.730000 0.333333 0.120000
0.790000 0.333333 0.120000
0.850000 0.333333 0.120000
0.000000 0.400000 0.120000
0.010000 0.400000 0.120000
0.070000 0.400000 0.120000
0.130000 0.400000 0.120000
0.190000 0.400000 0.120000
0.250000 0.400000 0.120000
0.310000 0.400000 0.120000
0.370000 0.400000 0.120000
0.430000 0.400000 0.120000
0.490000 0.400000 0.120000
0.550000 0.400000 0.120000
0.610000 0.400000 0.120000
0.670000 0.400000 0.120000
0.730000 0.400000 0.120000
0.790000 0.400000 0.120000
0.850000 0.400000 0.120000
0.000000 0.466667 0.120000
0.010000 0.466667 0.120000
0.070000 0.466667 0.120000
0.130000 0.466667 0.120000
0.190000 0.466667 0.120000
0.250000 0.466667 0.120000
0.310000 0.466667 0.120000
0.370000 0.466667 0.120000
0.430000 0.466667 0.120000
0.490000 0.466667 0.120000
0.550000 0.466667 0.120000
0.610000 0.466667 0.120000
0.670000 0.466667 0.120000
0.730000 0.466667 0.120000
0.790000 0.466667 0.120000
0.850000 0.466667 0.120000
0.000000 0.533333 0.120000
0.010000 0.533333 0.120000
0.070000 0.533333 0.120000
0.130000 0.533333 0.120000
0.190000 0.533333 0.120000
0.250000 0.533333 0.120000
0.310000 0.533333 0.120000
0.370000 0.533333 0.120000
0.430000 0.533333 0.120000
0.490000 0.533333 0.120000
0.550000 0.533333 0.120000
0.610000 0.533333 0.120000
0.670000 0.533333 0.120000
0.730000 0.533333 0.120000
0.790000 0.533333 0.120000
0.850000 0.533333 0.120000
0.000000 0.600000 0.120000
0.010000 0.600000 0.120000
0.070000 0.600000 0.120000
0.130000 0.600000 0.120000
0.190000 0.600000 0.120000
0.250000 0.600000 0.120000
0.310000 0.600000 0.120000
0.370000 0.600000 0.120000
0.430000 0.600000 0.120000
0.490000 0.600000 0.120000
0.550000 0.600000 0.120000
0.610000 0.600000 0.120000
0.670000 0.600000 0.120000
0.730000 0.600000 0.120000
0.790000 0.600000 0.120000
0.850000 0.600000 0.120000
0.000000 0.666667 0.120000
0.010000 0.666667 0.120000
0.070000 0.666667 0.120000
0.130000 0.666667 0.120000
0.190000 0.666667 0.120000
0.250000 0.666667 0.120000
0.310000 0.666667 0.120000
0.370000 0.666667 0.120000
0.430000 0.666667 0.120000
0.490000 0.666667 0.120000
0.550000 0.666667 0.120000
0.610000 0.666667 0.120000
0.670000 0.666667 0.120000
0.730000 0.666667 0.120000
0.790000 0.666667 0.120000
0.850000 0.666667 0.120000
0.000000 0.733333 0.120000
0.010000 0.733333 0.120000
0.070000 0.733333 0.120000
0.130000 0.733333 0.120000
0.190000 0.733333 0.120000
0.250000 0.733333 0.120000
0.310000 0.733333 0.120000
0.370000 0.733333 0.120000
0.430000 0.733333 0.120000
0.490000 0.733333 0.120000
0.550000 0.733333 0.120000
0.610000 0.733333 0.120000
0.670000 0.733333 0.120000
0.730000 0.733333 0.120000
0.790000 0.733333 0.120000
0.850000 0.733333 0.120000
0.000000 0.800000 0.120000
0.010000 0.800000 0.120000
0.070000 0.800000 0.120000
0.130000 0.800000 0.120000
0.190000 0.800000 0.120000
0.250000 0.800000 0.120000
0.310000 0.800000 0.120000
0.370000 0.800000 0.120000
0.430000 0.800000 0.120000
0.490000 0.800000 0.120000
0.550000 0.800000 0.120000
0.610000 0.800000 0.120000
0.670000 0.800000 0.120000
0.730000 0.800000 0.120000
0.790000 0.800000 0.120000
0.850000 0.800000 0.120000
0.000000 0.866667 0.120000
0.010000 0.866667 0.120000
0.070000 0.866667 0.120000
0.130000 0.866667 0.120000
0.190000 0.866667 0.120000
0.250000 0.866667 0.120000
0.310000 0.866667 0.120000
0.370000 0.866667 0.120000
0.430000 0.866667 0.120000
0.490000 0.866667 0.120000
0.550000 0.866667 0.120000
0.610000 0.866667 0.120000
0.670000 0.866667 0.120000
0.730000 0.866667 0.120000
0.790000 0.866667 0.120000
0.850000 0.866667 0.120000
0.000000 0.933333 0.120000
0.010000 0.933333 0.120000
0.070000 0.933333 0.120000
0.130000 0.933333 0.120000
0.190000 0.933333 0.120000
0.250000 0.933333 0.120000
0.310000 0.933333 0.120000
0.370000 0.933333 0.120000
0.430000 0.933333 0.120000
0.490000 0.933333 0.120000
0.550000 0.933333 0.120000
0.610000 0.933333 0.120000
0.670000 0.933333 0.120000
0.730000 0.933333 0.120000
0.790000 0.933333 0.120000
0.850000 0.933333 0.120000
0.000000 1.000000 0.120000
0.010000 1.000000 0.120000
0.070000 1.000000 0.120000
0.130000 1.000000 0.120000
0.190000 1.000000 0.120000
0.250000 1.000000 0.120000
0.310000 1.000000 0.120000
0.370000 1.000000 0.120000
0.430000 1.000000 0.120000
0.490000 1.000000 0.120000
0.550000 1.000000 0.120000
0.610000 1.000000 0.120000
0.670000 1.000000 0.120000
0.730000 1.000000 0.120000
0.790000 1.000000 0.120000
0.850000 1.000000 0.120000
0.000000 0.000000 0.190000
0.010000 0.000000 0.190000
0.070000 0.000000 0.190000
0.130000 0.000000 0.190000
0.190000 0.000000 0.190000
0.250000 0.000000 0.190000
0.310000 0.000000 0.190000
0.370000 0.000000 0.190000
0.430000 0.000000 0.190000
0.490000 0.000000 0.190000
0.550000 0.000000 0.190000
0.610000 0.000000 0.190000
0.670000 0.000000 0.190000
0.730000 0.000000 0.190000
0.790000 0.000000 0.190000
0.850000 0.000000 0.190000
0.000000 0.066667 0.190000
0.010000 0.066667 0.190000
0.070000 0.066667 0.190000
0.130000 0.066667 0.190000
0.190000 0.066667 0.190000
0.250000 0.066667 0.190000
0.310000 0.066667 0.190000
0.370000 0.066667 0.190000
0.430000 0.066667 0.190000
0.490000 0.066667 0.190000
0.550000 0.066667 0.190000
0.610000 0.066667 0.190000
0.670000 0.066667 0.190000
0.730000 0.066667 0.190000
0.790000 0.066667 0.190000
0.850000 0.066667 0.190000
0.000000 0.133333 0.190000
0.010000 0.133333 0.190000
0.070000 0.133333 0.190000
0.130000 0.133333 0.190000
0.190000 0.133333 0.190000
0.250000 0.133333 0.190000
0.310000 0.133333 0.190000
0.370000 0.133333 0.190000
0.430000 0.133333 0.190000
0.490000 0.133333 0.190000
0.550000 0.133333 0.190000
0.610000 0.133333 0.190000
0.670000 0.133333 0.190000
0.730000 0.133333 0.190000
0.790000 0.133333 0.190000
0.850000 0.133333 0.190000
0.000000 0.200000 0.190000
0.010000 0.200000 0.190000
0.070000 0.200000 0.190000
0.130000 0.200000 0.190000
0.190000 0.200000 0.190000
0.250000 0.200000 0.190000
0.310000 0.200000 0.190000
0.370000 0.200000 0.190000
0.430000 0.200000 0.190000
0.490000 0.200000 0.190000
0.550000 0.200000 0.190000
0.610000 0.200000 0.190000
0.670000 0.200000 0.190000
0.730000 0.200000 0.190000
0.790000 0.200000 0.190000
0.850000 0.200000 0.190000
0.000000 0.266667 0.190000
0.010000 0.266667 0.190000
0.070000 0.266667 0.190000
0.130000 0.266667 0.190000
0.190000 0.266667 0.190000
0.250000 0.266667 0.190000
0.310000 0.266667 0.190000
0.370000 0.266667 0.190000
0.430000 0.266667 0.190000
0.490000 0.266667 0.190000
0.550000 0.266667 0.190000
0.610000 0.266667 0.190000
0.670000 0.266667 0.190000
0.730000 0.266667 0.190000
0.790000 0.266667 0.190000
0.850000 0.266667 0.190000
0.000000 0.333333 0.190000
0.010000 0.333333 0.190000
0.070000 0.333333 0.190000
0.130000 0.333333 0.190000
0.190000 0.333333 0.190000
0.250000 0.333333 0.190000
0.310000 0.333333 0.190000
0.370000 0.333333 0.190000
0.430000 0.333333 0.190000
0.490000 0.333333 0.190000
0.550000 0.333333 0.190000
0.610000 0.333333 0.190000
0.670000 0.333333 0.190000
0.730000 0.333333 0.190000
0.790000 0.333333 0.190000
0.850000 0.333333 0.190000
0.000000 0.400000 0.190000
0.010000 0.400000 0.190000
0.070000 0.400000 0.190000
0.130000 0.400000 0.190000
0.190000 0.400000 0.190000
0.250000 0.400000 0.190000
0.310000 0.400000 0.190000
0.370000 0.400000 0.190000
0.430000 0.400000 0.190000
0.490000 0.400000 0.190000
0.550000 0.400000 0.190000
0.610000 0.400000 0.190000
0.670000 0.400000 0.190000
0.730000 0.400000 0.190000
0.790000 0.400000 0.190000
0.850000 0.400000 0.190000
0.000000 0.466667 0.190000
0.010000 0.466667 0.190000
0.070000 0.466667 0.190000
0.130000 0.466667 0.190000
0.190000 0.466667 0.190000
0.250000 0.466667 0.190000
0.310000 0.466667 0.190000
0.370000 0.466667 0.190000
0.430000 0.466667 0.190000
0.490000 0.466667 0.190000
0.550000 0.466667 0.190000
0.610000 0.466667 0.190000
0.670000 0.466667 0.190000
0.730000 0.466667 0.190000
0.790000 0.466667 0.190000
0.850000 0.466667 0.190000
0.000000 0.533333 0.190000
0.010000 0.533333 0.190000
0.070000 0.533333 0.190000
0.130000 0.533333 0.190000
0.190000 0.533333 0.190000
0.250000 0.533333 0.190000
0.310000 0.533333 0.190000
0.370000 0.533333 0.190000
0.430000 0.533333 0.190000
0.490000 0.533333 0.190000
0.550000 0.533333 0.190000
0.610000 0.533333 0.190000
0.670000 0.533333 0.190000
0.730000 0.533333 0.190000
0.790000 0.533333 0.190000
0.850000 0.533333 0.190000
0.000000 0.600000 0.190000
0.010000 0.600000 0.190000
0.070000 0.600000 0.190000
0.130000 0.600000 0.190000
0.190000 0.600000 0.190000
0.250000 0.600000 0.190000
0.310000 0.600000 0.190000
0.370000 0.600000 0.190000
0.430000 0.600000 0.190000
0.490000 0.600000 0.190000
0.550000 0.600000 0.190000
0.610000 0.600000 0.190000
0.670000 0.600000 0.190000
0.730000 0.600000 0.190000
0.790000 0.600000 0.190000
0.850000 0.600000 0.190000
0.000000 0.666667 0.190000
0.010000 0.666667 0.190000
0.070000 0.666667 0.190000
0.130000 0.666667 0.190000
0.190000 0.666667 0.190000
0.250000 0.666667 0.190000
0.310000 0.666667 0.190000
0.370000 0.666667 0.190000
0.430000 0.666667 0.190000
0.490000 0.666667 0.190000
0.550000 0.666667 0.190000
0.610000 0.666667 0.190000
0.670000 0.666667 0.190000
0.730000 0.666667 0.190000
0.790000 0.666667 0.190000
0.850000 0.666667 0.190000
0.000000 0.733333 0.190000
0.010000 0.733333 0.190000
0.070000 0.733333 0.190000
0.130000 0.733333 0.190000
0.190000 0.733333 0.190000
0.250000 0.733333 0.190000
0.310000 0.733333 0.190000
0.370000 0.733333 0.190000
0.430000 0.733333 0.190000
0.490000 0.733333 0.190000
0.550000 0.733333 0.190000
0.610000 0.733333 0.190000
0.670000 0.733333 0.190000
0.730000 0.733333 0.190000
0.790000 0.733333 0.190000
0.850000 0.733333 0.190000
0.000000 0.800000 0.190000
0.010000 0.800000 0.190000
0.070000 0.800000 0.190000
0.130000 0.800000 0.190000
0.190000 0.800000 0.190000
0.250000 0.800000 0.190000
0.310000 0.800000 0.190000
0.370000 0.800000 0.190000
0.430000 0.800000 0.190000
0.490000 0.800000 0.190000
0.550000 0.800000 0.190000
0.610000 0.800000 0.190000
0.670000 0.800000 0.190000
0.730000 0.800000 0.190000
0.790000 0.800000 0.190000
0.850000 0.800000 0.190000
0.000000 0.866667 0.190000
0.010000 0.866667 0.190000
0.070000 0.866667 0.190000
0.130000 0.866667 0.190000
0.190000 0.866667 0.190000
0.250000 0.866667 0.190000
0.310000 0.866667 0.190000
0.370000 0.866667 0.190000
0.430000 0.866667 0.190000
0.490000 0.866667 0.190000
0.550000 0.866667 0.190000
0.610000 0.866667 0.190000
0.670000 0.866667 0.190000
0.730000 0.866667 0.190000
0.790000 0.866667 0.190000
0.850000 0.866667 0.190000
0.000000 0.933333 0.190000
0.010000 0.933333 0.190000
0.070000 0.933333 0.190000
0.130000 0.933333 0.190000
0.190000 0.933333 0.190000
0.250000 0.933333 0.190000
0.310000 0.933333 0.190000
0.370000 0.933333 0.190000
0.430000 0.933333 0.190000
0.490000 0.933333 0.190000
0.550000 0.933333 0.190000
0.610000 0.933333 0.190000
0.670000 0.933333 0.190000
0.730000 0.933333 0.190000
0.790000 0.933333 0.190000
0.850000 0.933333 0.190000
0.000000 1.000000 0.190000
0.010000 1.000000 0.190000
0.070000 1.000000 0.190000
0.130000 1.000000 0.190000
0.190000 1.000000 0.190000
0.250000 1.000000 0.190000
0.310000 1.000000 0.190000
0.370000 1.000000 0.190000
0.430000 1.000000 0.190000
0.490000 1.000000 0.190000
0.550000 1.000000 0.190000
0.610000 1.000000 0.190000
0.670000 1.000000 0.190000
0.730000 1.000000 0.190000
0.790000 1.000000 0.190000
0.850000 1.000000 0.190000
0.000000 0.000000 0.260000
0.010000 0.000000 0.260000
0.070000 0.000000 0.260000
0.130000 0.000000 0.260000
0.190000 0.000000 0.260000
0.250000 0.000000 0.260000
0.310000 0.000000 0.260000
0.370000 0.000000 0.260000
0.430000 0.000000 0.260000
0.490000 0.000000 0.260000
0.550000 0.000000 0.260000
0.610000 0.000000 0.260000
0.670000 0.000000 0.260000
0.730000 0.000000 0.260000
0.790000 0.000000 0.260000
0.850000 0.000000 0.260000
0.000000 0.066667 0.260000
0.010000 0.066667 0.260000
0.070000 0.066667 0.260000
0.130000 0.066667 0.260000
0.190000 0.066667 0.260000
0.250000 0.066667 0.260000
0.310000 0.066667 0.260000
0.370000 0.066667 0.260000
0.430000 0.066667 0.260000
0.490000 0.066667 0.260000
0.550000 0.066667 0.260000
0.610000 0.066667 0.260000
0.670000 0.066667 0.260000
0.730000 0.066667 0.260000
0.790000 0.066667 0.260000
0.850000 0.066667 0.260000
0.000000 0.133333 0.260000
0.010000 0.133333 0.260000
0.070000 0.133333 0.260000
0.130000 0.133333 0.260000
0.190000 0.133333 0.260000
0.250000 0.133333 0.260000
0.310000 0.133333 0.260000
0.370000 0.133333 0.260000
0.430000 0.133333 0.260000
0.490000 0.133333 0.260000
0.550000 0.133333 0.260000
0.610000 0.133333 0.260000
0.670000 0.133333 0.260000
0.730000 0.133333 0.260000
0.790000 0.133333 0.260000
0.850000 0.133333 0.260000
0.000000 0.200000 0.260000
0.010000 0.200000 0.260000
0.070000 0.200000 0.260000
0.130000 0.200000 0.260000
0.190000 0.200000 0.260000
0.250000 0.200000 0.260000
0.310000 0.200000 0.260000
0.370000 0.200000 0.260000
0.430000 0.200000 0.260000
0.490000 0.200000 0.260000
0.550000 0.200000 0.260000
0.610000 0.200000 0.260000
0.670000 0.200000 0.260000
0.730000 0.200000 0.260000
0.790000 0.200000 0.260000
0.850000 0.200000 0.260000
0.000000 0.266667 0.260000
0.010000 0.266667 0.260000
0.070000 0.266667 0.260000
0.130000 0.266667 0.260000
0.190000 0.266667 0.260000
0.250000 0.266667 0.260000
0.310000 0.266667 0.260000
0.370000 0.266667 0.260000
0.430000 0.266667 0.260000
0.490000 0.266667 0.260000
0.550000 0.266667 0.260000
0.610000 0.266667 0.260000
0.670000 0.266667 0.260000
0.730000 0.266667 0.260000
0.790000 0.266667 0.260000
0.850000 0.266667 0.260000
0.000000 0.333333 0.260000
0.010000 0.333333 0.260000
0.070000 0.333333 0.260000
0.130000 0.333333 0.260000
0.190000 0.333333 0.260000
0.250000 0.333333 0.260000
0.310000 0.333333 0.260000
0.370000 0.333333 0.260000
0.430000 0.333333 0.260000
0.490000 0.333333 0.260000
0.550000 0.333333 0.260000
0.610000 0.333333 0.260000
0.670000 0.333333 0.260000
0.730000 0.333333 0.260000
0.790000 0.333333 0.260000
0.850000 0.333333 0.260000
0.000000 0.400000 0.260000
0.010000 0.400000 0.260000
0.070000 0.400000 0.260000
0.130000 0.400000 0.260000
0.190000 0.400000 0.260000
0.250000 0.400000 0.260000
0.310000 0.400000 0.260000
0.370000 0.400000 0.260000
0.430000 0.400000 0.260000
0.490000 0.400000 0.260000
0.550000 0.400000 0.260000
0.610000 0.400000 0.260000
0.670000 0.400000 0.260000
0.730000 0.400000 0.260000
0.790000 0.400000 0.260000
0.850000 0.400000 0.260000
0.000000 0.466667 0.260000
0.010000 0.466667 0.260000
0.070000 0.466667 0.260000
0.130000 0.466667 0.260000
0.190000 0.466667 0.260000
0.250000 0.466667 0.260000
0.310000 0.466667 0.260000
