resources/luts/sepia.cube
TITLE "sepia"
LUT_3D_SIZE 6
0.000000 0.000000 0.000000
0.078600 0.069800 0.054400
0.157200 0.139600 0.108800
0.235800 0.209400 0.163200
0.314400 0.279200 0.217600
0.393000 0.349000 0.272000
0.153800 0.137200 0.106800
0.232400 0.207000 0.161200
0.311000 0.276800 0.215600
0.389600 0.346600 0.270000
0.468200 0.416400 0.324400
0.546800 0.486200 0.378800
0.307600 0.274400 0.213600
0.386200 0.344200 0.268000
0.464800 0.414000 0.322400
0.543400 0.483800 0.376800
0.622000 0.553600 0.431200
0.700600 0.623400 0.485600
0.461400 0.411600 0.320400
0.540000 0.481400 0.374800
0.618600 0.551200 0.429200
0.697200 0.621000 0.483600
0.775800 0.690800 0.538000
0.854400 0.760600 0.592400
0.615200 0.548800 0.427200
0.693800 0.618600 0.481600
0.772400 0.688400 0.536000
0.851000 0.758200 0.590400
0.929600 0.828000 0.644800
1.000000 0.897800 0.699200
0.769000 0.686000 0.534000
0.847600 0.755800 0.588400
0.926200 0.825600 0.642800
1.000000 0.895400 0.697200
1.000000 0.965200 0.751600
1.000000 1.000000 0.806000
0.037800 0.033600 0.026200
0.116400 0.103400 0.080600
0.195000 0.173200 0.135000
0.273600 0.243000 0.189400
0.352200 0.312800 0.243800
0.430800 0.382600 0.298200
0.191600 0.170800 0.133000
0.270200 0.240600 0.187400
0.348800 0.310400 0.241800
0.427400 0.380200 0.296200
0.506000 0.450000 0.350600
0.584600 0.519800 0.405000
0.345400 0.308000 0.239800
0.424000 0.377800 0.294200
0.502600 0.447600 0.348600
0.581200 0.517400 0.403000
0.659800 0.587200 0.457400
0.738400 0.657000 0.511800
0.499200 0.445200 0.346600
0.577800 0.515000 0.401000
0.656400 0.584800 0.455400
0.735000 0.654600 0.509800
0.813600 0.724400 0.564200
0.892200 0.794200 0.618600
0.653000 0.582400 0.453400
0.731600 0.652200 0.507800
0.810200 0.722000 0.562200
0.888800 0.791800 0.616600
0.967400 0.861600 0.671000
1.000000 0.931400 0.725400
0.806800 0.719600 0.560200
0.885400 0.789400 0.614600
0.964000 0.859200 0.669000
1.000000 0.929000 0.723400
1.000000 0.998800 0.777800
1.000000 1.000000 0.832200
0.075600 0.067200 0.052400
0.154200 0.137000 0.106800
0.232800 0.206800 0.161200
0.311400 0.276600 0.215600
0.390000 0.346400 0.270000
0.468600 0.416200 0.324400
0.229400 0.204400 0.159200
0.308000 0.274200 0.213600
0.386600 0.344000 0.268000
0.465200 0.413800 0.322400
0.543800 0.483600 0.376800
0.622400 0.553400 0.431200
0.383200 0.341600 0.266000
0.461800 0.411400 0.320400
0.540400 0.481200 0.374800
0.619000 0.551000 0.429200
0.697600 0.620800 0.483600
0.776200 0.690600 0.538000
0.537000 0.478800 0.372800
0.615600 0.548600 0.427200
0.694200 0.618400 0.481600
0.772800 0.688200 0.536000
0.851400 0.758000 0.590400
0.930000 0.827800 0.644800
0.690800 0.616000 0.479600
0.769400 0.685800 0.534000
0.848000 0.755600 0.588400
0.926600 0.825400 0.642800
1.000000 0.895200 0.697200
1.000000 0.965000 0.751600
0.844600 0.753200 0.586400
0.923200 0.823000 0.640800
1.000000 0.892800 0.695200
1.000000 0.962600 0.749600
1.000000 1.000000 0.804000
1.000000 1.000000 0.858400
0.113400 0.100800 0.078600
0.192000 0.170600 0.133000
0.270600 0.240400 0.187400
0.349200 0.310200 0.241800
0.427800 0.380000 0.296200
0.506400 0.449800 0.350600
0.267200 0.238000 0.185400
0.345800 0.307800 0.239800
0.424400 0.377600 0.294200
0.503000 0.447400 0.348600
0.581600 0.517200 0.403000
0.660200 0.587000 0.457400
0.421000 0.375200 0.292200
0.499600 0.445000 0.346600
0.578200 0.514800 0.401000
0.656800 0.584600 0.455400
0.735400 0.654400 0.509800
0.814000 0.724200 0.564200
0.574800 0.512400 0.399000
0.653400 0.582200 0.453400
0.732000 0.652000 0.507800
0.810600 0.721800 0.562200
0.889200 0.791600 0.616600
0.967800 0.861400 0.671000
0.728600 0.649600 0.505800
0.807200 0.719400 0.560200
0.885800 0.789200 0.614600
0.964400 0.859000 0.669000
1.000000 0.928800 0.723400
1.000000 0.998600 0.777800
0.882400 0.786800 0.612600
0.961000 0.856600 0.667000
1.000000 0.926400 0.721400
1.000000 0.996200 0.775800
1.000000 1.000000 0.830200
1.000000 1.000000 0.884600
0.151200 0.134400 0.104800
0.229800 0.204200 0.159200
0.308400 0.274000 0.213600
0.387000 0.343800 0.268000
0.465600 0.413600 0.322400
0.544200 0.483400 0.376800
0.305000 0.271600 0.211600
0.383600 0.341400 0.266000
0.462200 0.411200 0.320400
0.540800 0.481000 0.374800
0.619400 0.550800 0.429200
0.698000 0.620600 0.483600
0.458800 0.408800 0.318400
0.537400 0.478600 0.372800
0.616000 0.548400 0.427200
0.694600 0.618200 0.481600
0.773200 0.688000 0.536000
0.851800 0.757800 0.590400
0.612600 0.546000 0.425200
0.691200 0.615800 0.479600
0.769800 0.685600 0.534000
0.848400 0.755400 0.588400
0.927000 0.825200 0.642800
1.000000 0.895000 0.697200
0.766400 0.683200 0.532000
0.845000 0.753000 0.586400
0.923600 0.822800 0.640800
1.000000 0.892600 0.695200
1.000000 0.962400 0.749600
1.000000 1.000000 0.804000
0.920200 0.820400 0.638800
0.998800 0.890200 0.693200
1.000000 0.960000 0.747600
1.000000 1.000000 0.802000
1.000000 1.000000 0.856400
1.000000 1.000000 0.910800
0.189000 0.168000 0.131000
0.267600 0.237800 0.185400
0.346200 0.307600 0.239800
0.424800 0.377400 0.294200
0.503400 0.447200 0.348600
0.582000 0.517000 0.403000
0.342800 0.305200 0.237800
0.421400 0.375000 0.292200
0.500000 0.444800 0.346600
0.578600 0.514600 0.401000
0.657200 0.584400 0.455400
0.735800 0.654200 0.509800
0.496600 0.442400 0.344600
0.575200 0.512200 0.399000
0.653800 0.582000 0.453400
0.732400 0.651800 0.507800
0.811000 0.721600 0.562200
0.889600 0.791400 0.616600
0.650400 0.579600 0.451400
0.729000 0.649400 0.505800
0.807600 0.719200 0.560200
0.886200 0.789000 0.614600
0.964800 0.858800 0.669000
1.000000 0.928600 0.723400
0.804200 0.716800 0.558200
0.882800 0.786600 0.612600
0.961400 0.856400 0.667000
1.000000 0.926200 0.721400
1.000000 0.996000 0.775800
1.000000 1.000000 0.830200
0.958000 0.854000 0.665000
1.000000 0.923800 0.719400
1.000000 0.993600 0.773800
1.000000 1.000000 0.828200
1.000000 1.000000 0.882600
1.000000 1.000000 0.937000
