resources/luts/sepia.cube
TITLE "sepia"
LUT_3D_SIZE 16
0.000000 0.000000 0.000000
0.026200 0.023267 0.018133
0.052400 0.046533 0.036267
0.078600 0.069800 0.054400
0.104800 0.093067 0.072533
0.131000 0.116333 0.090667
0.157200 0.139600 0.108800
0.183400 0.162867 0.126933
0.209600 0.186133 0.145067
0.235800 0.209400 0.163200
0.262000 0.232667 0.181333
0.288200 0.255933 0.199467
0.314400 0.279200 0.217600
0.340600 0.302467 0.235733
0.366800 0.325733 0.253867
0.393000 0.349000 0.272000
0.051267 0.045733 0.035600
0.077467 0.069000 0.053733
0.103667 0.092267 0.071867
0.129867 0.115533 0.090000
0.156067 0.138800 0.108133
0.182267 0.162067 0.126267
0.208467 0.185333 0.144400
0.234667 0.208600 0.162533
0.260867 0.231867 0.180667
0.287067 0.255133 0.198800
0.313267 0.278400 0.216933
0.339467 0.301667 0.235067
0.365667 0.324933 0.253200
0.391867 0.348200 0.271333
0.418067 0.371467 0.289467
0.444267 0.394733 0.307600
0.102533 0.091467 0.071200
0.128733 0.114733 0.089333
0.154933 0.138000 0.107467
0.181133 0.161267 0.125600
0.207333 0.184533 0.143733
0.233533 0.207800 0.161867
0.259733 0.231067 0.180000
0.285933 0.254333 0.198133
0.312133 0.277600 0.216267
0.338333 0.300867 0.234400
0.364533 0.324133 0.252533
0.390733 0.347400 0.270667
0.416933 0.370667 0.288800
0.443133 0.393933 0.306933
0.469333 0.417200 0.325067
0.495533 0.440467 0.343200
0.153800 0.137200 0.106800
0.180000 0.160467 0.124933
0.206200 0.183733 0.143067
0.232400 0.207000 0.161200
0.258600 0.230267 0.179333
0.284800 0.253533 0.197467
0.311000 0.276800 0.215600
0.337200 0.300067 0.233733
0.363400 0.323333 0.251867
0.389600 0.346600 0.270000
0.415800 0.369867 0.288133
0.442000 0.393133 0.306267
0.468200 0.416400 0.324400
0.494400 0.439667 0.342533
0.520600 0.462933 0.360667
0.546800 0.486200 0.378800
0.205067 0.182933 0.142400
0.231267 0.206200 0.160533
0.257467 0.229467 0.178667
0.283667 0.252733 0.196800
0.309867 0.276000 0.214933
0.336067 0.299267 0.233067
0.362267 0.322533 0.251200
0.388467 0.345800 0.269333
0.414667 0.369067 0.287467
0.440867 0.392333 0.305600
0.467067 0.415600 0.323733
0.493267 0.438867 0.341867
0.519467 0.462133 0.360000
0.545667 0.485400 0.378133
0.571867 0.508667 0.396267
0.598067 0.531933 0.414400
0.256333 0.228667 0.178000
0.282533 0.251933 0.196133
0.308733 0.275200 0.214267
0.334933 0.298467 0.232400
0.361133 0.321733 0.250533
0.387333 0.345000 0.268667
0.413533 0.368267 0.286800
0.439733 0.391533 0.304933
0.465933 0.414800 0.323067
0.492133 0.438067 0.341200
0.518333 0.461333 0.359333
0.544533 0.484600 0.377467
0.570733 0.507867 0.395600
0.596933 0.531133 0.413733
0.623133 0.554400 0.431867
0.649333 0.577667 0.450000
0.307600 0.274400 0.213600
0.333800 0.297667 0.231733
0.360000 0.320933 0.249867
0.386200 0.344200 0.268000
0.412400 0.367467 0.286133
0.438600 0.390733 0.304267
0.464800 0.414000 0.322400
0.491000 0.437267 0.340533
0.517200 0.460533 0.358667
0.543400 0.483800 0.376800
0.569600 0.507067 0.394933
0.595800 0.530333 0.413067
0.622000 0.553600 0.431200
0.648200 0.576867 0.449333
0.674400 0.600133 0.467467
0.700600 0.623400 0.485600
0.358867 0.320133 0.249200
0.385067 0.343400 0.267333
0.411267 0.366667 0.285467
0.437467 0.389933 0.303600
0.463667 0.413200 0.321733
0.489867 0.436467 0.339867
0.516067 0.459733 0.358000
0.542267 0.483000 0.376133
0.568467 0.506267 0.394267
0.594667 0.529533 0.412400
0.620867 0.552800 0.430533
0.647067 0.576067 0.448667
0.673267 0.599333 0.466800
0.699467 0.622600 0.484933
0.725667 0.645867 0.503067
0.751867 0.669133 0.521200
0.410133 0.365867 0.284800
0.436333 0.389133 0.302933
0.462533 0.412400 0.321067
0.488733 0.435667 0.339200
0.514933 0.458933 0.357333
0.541133 0.482200 0.375467
0.567333 0.505467 0.393600
0.593533 0.528733 0.411733
0.619733 0.552000 0.429867
0.645933 0.575267 0.448000
0.672133 0.598533 0.466133
0.698333 0.621800 0.484267
0.724533 0.645067 0.502400
0.750733 0.668333 0.520533
0.776933 0.691600 0.538667
0.803133 0.714867 0.556800
0.461400 0.411600 0.320400
0.487600 0.434867 0.338533
0.513800 0.458133 0.356667
0.540000 0.481400 0.374800
0.566200 0.504667 0.392933
0.592400 0.527933 0.411067
0.618600 0.551200 0.429200
0.644800 0.574467 0.447333
0.671000 0.597733 0.465467
0.697200 0.621000 0.483600
0.723400 0.644267 0.501733
0.749600 0.667533 0.519867
0.775800 0.690800 0.538000
0.802000 0.714067 0.556133
0.828200 0.737333 0.574267
0.854400 0.760600 0.592400
0.512667 0.457333 0.356000
0.538867 0.480600 0.374133
0.565067 0.503867 0.392267
0.591267 0.527133 0.410400
0.617467 0.550400 0.428533
0.643667 0.573667 0.446667
0.669867 0.596933 0.464800
0.696067 0.620200 0.482933
0.722267 0.643467 0.501067
0.748467 0.666733 0.519200
0.774667 0.690000 0.537333
0.800867 0.713267 0.555467
0.827067 0.736533 0.573600
0.853267 0.759800 0.591733
0.879467 0.783067 0.609867
0.905667 0.806333 0.628000
0.563933 0.503067 0.391600
0.590133 0.526333 0.409733
0.616333 0.549600 0.427867
0.642533 0.572867 0.446000
0.668733 0.596133 0.464133
0.694933 0.619400 0.482267
0.721133 0.642667 0.500400
0.747333 0.665933 0.518533
0.773533 0.689200 0.536667
0.799733 0.712467 0.554800
0.825933 0.735733 0.572933
0.852133 0.759000 0.591067
0.878333 0.782267 0.609200
0.904533 0.805533 0.627333
0.930733 0.828800 0.645467
0.956933 0.852067 0.663600
0.615200 0.548800 0.427200
0.641400 0.572067 0.445333
0.667600 0.595333 0.463467
0.693800 0.618600 0.481600
0.720000 0.641867 0.499733
0.746200 0.665133 0.517867
0.772400 0.688400 0.536000
0.798600 0.711667 0.554133
0.824800 0.734933 0.572267
0.851000 0.758200 0.590400
0.877200 0.781467 0.608533
0.903400 0.804733 0.626667
0.929600 0.828000 0.644800
0.955800 0.851267 0.662933
0.982000 0.874533 0.681067
1.000000 0.897800 0.699200
0.666467 0.594533 0.462800
0.692667 0.617800 0.480933
0.718867 0.641067 0.499067
0.745067 0.664333 0.517200
0.771267 0.687600 0.535333
0.797467 0.710867 0.553467
0.823667 0.734133 0.571600
0.849867 0.757400 0.589733
0.876067 0.780667 0.607867
0.902267 0.803933 0.626000
0.928467 0.827200 0.644133
0.954667 0.850467 0.662267
0.980867 0.873733 0.680400
1.000000 0.897000 0.698533
1.000000 0.920267 0.716667
1.000000 0.943533 0.734800
0.717733 0.640267 0.498400
0.743933 0.663533 0.516533
0.770133 0.686800 0.534667
0.796333 0.710067 0.552800
0.822533 0.733333 0.570933
0.848733 0.756600 0.589067
0.874933 0.779867 0.607200
0.901133 0.803133 0.625333
0.927333 0.826400 0.643467
0.953533 0.849667 0.661600
0.979733 0.872933 0.679733
1.000000 0.896200 0.697867
1.000000 0.919467 0.716000
1.000000 0.942733 0.734133
1.000000 0.966000 0.752267
1.000000 0.989267 0.770400
0.769000 0.686000 0.534000
0.795200 0.709267 0.552133
0.821400 0.732533 0.570267
0.847600 0.755800 0.588400
0.873800 0.779067 0.606533
0.900000 0.802333 0.624667
0.926200 0.825600 0.642800
0.952400 0.848867 0.660933
0.978600 0.872133 0.679067
1.000000 0.895400 0.697200
1.000000 0.918667 0.715333
1.000000 0.941933 0.733467
1.000000 0.965200 0.751600
1.000000 0.988467 0.769733
1.000000 1.000000 0.787867
1.000000 1.000000 0.806000
0.012600 0.011200 0.008733
0.038800 0.034467 0.026867
0.065000 0.057733 0.045000
0.091200 0.081000 0.063133
0.117400 0.104267 0.081267
0.143600 0.127533 0.099400
0.169800 0.150800 0.117533
0.196000 0.174067 0.135667
0.222200 0.197333 0.153800
0.248400 0.220600 0.171933
0.274600 0.243867 0.190067
0.300800 0.267133 0.208200
0.327000 0.290400 0.226333
0.353200 0.313667 0.244467
0.379400 0.336933 0.262600
0.405600 0.360200 0.280733
0.063867 0.056933 0.044333
0.090067 0.080200 0.062467
0.116267 0.103467 0.080600
0.142467 0.126733 0.098733
0.168667 0.150000 0.116867
0.194867 0.173267 0.135000
0.221067 0.196533 0.153133
0.247267 0.219800 0.171267
0.273467 0.243067 0.189400
0.299667 0.266333 0.207533
0.325867 0.289600 0.225667
0.352067 0.312867 0.243800
0.378267 0.336133 0.261933
0.404467 0.359400 0.280067
0.430667 0.382667 0.298200
0.456867 0.405933 0.316333
0.115133 0.102667 0.079933
0.141333 0.125933 0.098067
0.167533 0.149200 0.116200
0.193733 0.172467 0.134333
0.219933 0.195733 0.152467
0.246133 0.219000 0.170600
0.272333 0.242267 0.188733
0.298533 0.265533 0.206867
0.324733 0.288800 0.225000
0.350933 0.312067 0.243133
0.377133 0.335333 0.261267
0.403333 0.358600 0.279400
0.429533 0.381867 0.297533
0.455733 0.405133 0.315667
0.481933 0.428400 0.333800
0.508133 0.451667 0.351933
0.166400 0.148400 0.115533
0.192600 0.171667 0.133667
0.218800 0.194933 0.151800
0.245000 0.218200 0.169933
0.271200 0.241467 0.188067
0.297400 0.264733 0.206200
0.323600 0.288000 0.224333
0.349800 0.311267 0.242467
0.376000 0.334533 0.260600
0.402200 0.357800 0.278733
0.428400 0.381067 0.296867
0.454600 0.404333 0.315000
0.480800 0.427600 0.333133
0.507000 0.450867 0.351267
0.533200 0.474133 0.369400
0.559400 0.497400 0.387533
0.217667 0.194133 0.151133
0.243867 0.217400 0.169267
0.270067 0.240667 0.187400
0.296267 0.263933 0.205533
0.322467 0.287200 0.223667
0.348667 0.310467 0.241800
0.374867 0.333733 0.259933
0.401067 0.357000 0.278067
0.427267 0.380267 0.296200
0.453467 0.403533 0.314333
0.479667 0.426800 0.332467
0.505867 0.450067 0.350600
0.532067 0.473333 0.368733
0.558267 0.496600 0.386867
0.584467 0.519867 0.405000
0.610667 0.543133 0.423133
0.268933 0.239867 0.186733
0.295133 0.263133 0.204867
0.321333 0.286400 0.223000
0.347533 0.309667 0.241133
0.373733 0.332933 0.259267
0.399933 0.356200 0.277400
0.426133 0.379467 0.295533
0.452333 0.402733 0.313667
0.478533 0.426000 0.331800
0.504733 0.449267 0.349933
0.530933 0.472533 0.368067
0.557133 0.495800 0.386200
0.583333 0.519067 0.404333
0.609533 0.542333 0.422467
0.635733 0.565600 0.440600
0.661933 0.588867 0.458733
0.320200 0.285600 0.222333
0.346400 0.308867 0.240467
0.372600 0.332133 0.258600
0.398800 0.355400 0.276733
0.425000 0.378667 0.294867
0.451200 0.401933 0.313000
0.477400 0.425200 0.331133
0.503600 0.448467 0.349267
0.529800 0.471733 0.367400
0.556000 0.495000 0.385533
0.582200 0.518267 0.403667
0.608400 0.541533 0.421800
0.634600 0.564800 0.439933
0.660800 0.588067 0.458067
0.687000 0.611333 0.476200
0.713200 0.634600 0.494333
0.371467 0.331333 0.257933
0.397667 0.354600 0.276067
0.423867 0.377867 0.294200
0.450067 0.401133 0.312333
0.476267 0.424400 0.330467
0.502467 0.447667 0.348600
0.528667 0.470933 0.366733
0.554867 0.494200 0.384867
0.581067 0.517467 0.403000
0.607267 0.540733 0.421133
0.633467 0.564000 0.439267
0.659667 0.587267 0.457400
0.685867 0.610533 0.475533
0.712067 0.633800 0.493667
0.738267 0.657067 0.511800
0.764467 0.680333 0.529933
0.422733 0.377067 0.293533
0.448933 0.400333 0.311667
0.475133 0.423600 0.329800
0.501333 0.446867 0.347933
0.527533 0.470133 0.366067
0.553733 0.493400 0.384200
0.579933 0.516667 0.402333
0.606133 0.539933 0.420467
0.632333 0.563200 0.438600
0.658533 0.586467 0.456733
0.684733 0.609733 0.474867
0.710933 0.633000 0.493000
0.737133 0.656267 0.511133
0.763333 0.679533 0.529267
0.789533 0.702800 0.547400
0.815733 0.726067 0.565533
0.474000 0.422800 0.329133
0.500200 0.446067 0.347267
0.526400 0.469333 0.365400
0.552600 0.492600 0.383533
0.578800 0.515867 0.401667
0.605000 0.539133 0.419800
0.631200 0.562400 0.437933
0.657400 0.585667 0.456067
0.683600 0.608933 0.474200
0.709800 0.632200 0.492333
0.736000 0.655467 0.510467
0.762200 0.678733 0.528600
0.788400 0.702000 0.546733
0.814600 0.725267 0.564867
0.840800 0.748533 0.583000
0.867000 0.771800 0.601133
0.525267 0.468533 0.364733
0.551467 0.491800 0.382867
0.577667 0.515067 0.401000
0.603867 0.538333 0.419133
0.630067 0.561600 0.437267
0.656267 0.584867 0.455400
0.682467 0.608133 0.473533
0.708667 0.631400 0.491667
0.734867 0.654667 0.509800
0.761067 0.677933 0.527933
0.787267 0.701200 0.546067
0.813467 0.724467 0.564200
0.839667 0.747733 0.582333
0.865867 0.771000 0.600467
0.892067 0.794267 0.618600
0.918267 0.817533 0.636733
0.576533 0.514267 0.400333
0.602733 0.537533 0.418467
0.628933 0.560800 0.436600
0.655133 0.584067 0.454733
0.681333 0.607333 0.472867
0.707533 0.630600 0.491000
0.733733 0.653867 0.509133
0.759933 0.677133 0.527267
0.786133 0.700400 0.545400
0.812333 0.723667 0.563533
0.838533 0.746933 0.581667
0.864733 0.770200 0.599800
0.890933 0.793467 0.617933
0.917133 0.816733 0.636067
0.943333 0.840000 0.654200
0.969533 0.863267 0.672333
0.627800 0.560000 0.435933
0.654000 0.583267 0.454067
0.680200 0.606533 0.472200
0.706400 0.629800 0.490333
0.732600 0.653067 0.508467
0.758800 0.676333 0.526600
0.785000 0.699600 0.544733
0.811200 0.722867 0.562867
0.837400 0.746133 0.581000
0.863600 0.769400 0.599133
0.889800 0.792667 0.617267
0.916000 0.815933 0.635400
0.942200 0.839200 0.653533
0.968400 0.862467 0.671667
0.994600 0.885733 0.689800
1.000000 0.909000 0.707933
0.679067 0.605733 0.471533
0.705267 0.629000 0.489667
0.731467 0.652267 0.507800
0.757667 0.675533 0.525933
0.783867 0.698800 0.544067
0.810067 0.722067 0.562200
0.836267 0.745333 0.580333
0.862467 0.768600 0.598467
0.888667 0.791867 0.616600
0.914867 0.815133 0.634733
0.941067 0.838400 0.652867
0.967267 0.861667 0.671000
0.993467 0.884933 0.689133
1.000000 0.908200 0.707267
1.000000 0.931467 0.725400
1.000000 0.954733 0.743533
0.730333 0.651467 0.507133
0.756533 0.674733 0.525267
0.782733 0.698000 0.543400
0.808933 0.721267 0.561533
0.835133 0.744533 0.579667
0.861333 0.767800 0.597800
0.887533 0.791067 0.615933
0.913733 0.814333 0.634067
0.939933 0.837600 0.652200
0.966133 0.860867 0.670333
0.992333 0.884133 0.688467
1.000000 0.907400 0.706600
1.000000 0.930667 0.724733
1.000000 0.953933 0.742867
1.000000 0.977200 0.761000
1.000000 1.000000 0.779133
0.781600 0.697200 0.542733
0.807800 0.720467 0.560867
0.834000 0.743733 0.579000
0.860200 0.767000 0.597133
0.886400 0.790267 0.615267
0.912600 0.813533 0.633400
0.938800 0.836800 0.651533
0.965000 0.860067 0.669667
0.991200 0.883333 0.687800
1.000000 0.906600 0.705933
1.000000 0.929867 0.724067
1.000000 0.953133 0.742200
1.000000 0.976400 0.760333
1.000000 0.999667 0.778467
1.000000 1.000000 0.796600
1.000000 1.000000 0.814733
0.025200 0.022400 0.017467
0.051400 0.045667 0.035600
0.077600 0.068933 0.053733
0.103800 0.092200 0.071867
0.130000 0.115467 0.090000
0.156200 0.138733 0.108133
0.182400 0.162000 0.126267
0.208600 0.185267 0.144400
0.234800 0.208533 0.162533
0.261000 0.231800 0.180667
0.287200 0.255067 0.198800
0.313400 0.278333 0.216933
0.339600 0.301600 0.235067
0.365800 0.324867 0.253200
0.392000 0.348133 0.271333
0.418200 0.371400 0.289467
0.076467 0.068133 0.053067
0.102667 0.091400 0.071200
0.128867 0.114667 0.089333
0.155067 0.137933 0.107467
0.181267 0.161200 0.125600
0.207467 0.184467 0.143733
0.233667 0.207733 0.161867
0.259867 0.231000 0.180000
0.286067 0.254267 0.198133
0.312267 0.277533 0.216267
0.338467 0.300800 0.234400
0.364667 0.324067 0.252533
0.390867 0.347333 0.270667
0.417067 0.370600 0.288800
0.443267 0.393867 0.306933
0.469467 0.417133 0.325067
0.127733 0.113867 0.088667
0.153933 0.137133 0.106800
0.180133 0.160400 0.124933
0.206333 0.183667 0.143067
0.232533 0.206933 0.161200
0.258733 0.230200 0.179333
0.284933 0.253467 0.197467
0.311133 0.276733 0.215600
0.337333 0.300000 0.233733
0.363533 0.323267 0.251867
0.389733 0.346533 0.270000
0.415933 0.369800 0.288133
0.442133 0.393067 0.306267
0.468333 0.416333 0.324400
0.494533 0.439600 0.342533
0.520733 0.462867 0.360667
0.179000 0.159600 0.124267
0.205200 0.182867 0.142400
0.231400 0.206133 0.160533
0.257600 0.229400 0.178667
0.283800 0.252667 0.196800
0.310000 0.275933 0.214933
0.336200 0.299200 0.233067
0.362400 0.322467 0.251200
0.388600 0.345733 0.269333
0.414800 0.369000 0.287467
0.441000 0.392267 0.305600
0.467200 0.415533 0.323733
0.493400 0.438800 0.341867
0.519600 0.462067 0.360000
0.545800 0.485333 0.378133
0.572000 0.508600 0.396267
0.230267 0.205333 0.159867
0.256467 0.228600 0.178000
0.282667 0.251867 0.196133
0.308867 0.275133 0.214267
0.335067 0.298400 0.232400
0.361267 0.321667 0.250533
0.387467 0.344933 0.268667
0.413667 0.368200 0.286800
0.439867 0.391467 0.304933
0.466067 0.414733 0.323067
0.492267 0.438000 0.341200
0.518467 0.461267 0.359333
0.544667 0.484533 0.377467
0.570867 0.507800 0.395600
0.597067 0.531067 0.413733
0.623267 0.554333 0.431867
0.281533 0.251067 0.195467
0.307733 0.274333 0.213600
0.333933 0.297600 0.231733
0.360133 0.320867 0.249867
0.386333 0.344133 0.268000
0.412533 0.367400 0.286133
0.438733 0.390667 0.304267
0.464933 0.413933 0.322400
0.491133 0.437200 0.340533
0.517333 0.460467 0.358667
0.543533 0.483733 0.376800
0.569733 0.507000 0.394933
0.595933 0.530267 0.413067
0.622133 0.553533 0.431200
0.648333 0.576800 0.449333
0.674533 0.600067 0.467467
0.332800 0.296800 0.231067
0.359000 0.320067 0.249200
0.385200 0.343333 0.267333
0.411400 0.366600 0.285467
0.437600 0.389867 0.303600
0.463800 0.413133 0.321733
0.490000 0.436400 0.339867
0.516200 0.459667 0.358000
0.542400 0.482933 0.376133
0.568600 0.506200 0.394267
0.594800 0.529467 0.412400
0.621000 0.552733 0.430533
0.647200 0.576000 0.448667
0.673400 0.599267 0.466800
0.699600 0.622533 0.484933
0.725800 0.645800 0.503067
0.384067 0.342533 0.266667
0.410267 0.365800 0.284800
0.436467 0.389067 0.302933
0.462667 0.412333 0.321067
0.488867 0.435600 0.339200
0.515067 0.458867 0.357333
0.541267 0.482133 0.375467
0.567467 0.505400 0.393600
0.593667 0.528667 0.411733
0.619867 0.551933 0.429867
0.646067 0.575200 0.448000
0.672267 0.598467 0.466133
0.698467 0.621733 0.484267
0.724667 0.645000 0.502400
0.750867 0.668267 0.520533
0.777067 0.691533 0.538667
0.435333 0.388267 0.302267
0.461533 0.411533 0.320400
0.487733 0.434800 0.338533
0.513933 0.458067 0.356667
0.540133 0.481333 0.374800
0.566333 0.504600 0.392933
0.592533 0.527867 0.411067
0.618733 0.551133 0.429200
0.644933 0.574400 0.447333
0.671133 0.597667 0.465467
0.697333 0.620933 0.483600
0.723533 0.644200 0.501733
0.749733 0.667467 0.519867
0.775933 0.690733 0.538000
0.802133 0.714000 0.556133
0.828333 0.737267 0.574267
0.486600 0.434000 0.337867
0.512800 0.457267 0.356000
0.539000 0.480533 0.374133
0.565200 0.503800 0.392267
0.591400 0.527067 0.410400
0.617600 0.550333 0.428533
0.643800 0.573600 0.446667
0.670000 0.596867 0.464800
0.696200 0.620133 0.482933
0.722400 0.643400 0.501067
0.748600 0.666667 0.519200
0.774800 0.689933 0.537333
0.801000 0.713200 0.555467
0.827200 0.736467 0.573600
0.853400 0.759733 0.591733
0.879600 0.783000 0.609867
0.537867 0.479733 0.373467
0.564067 0.503000 0.391600
0.590267 0.526267 0.409733
0.616467 0.549533 0.427867
0.642667 0.572800 0.446000
0.668867 0.596067 0.464133
0.695067 0.619333 0.482267
0.721267 0.642600 0.500400
0.747467 0.665867 0.518533
0.773667 0.689133 0.536667
0.799867 0.712400 0.554800
0.826067 0.735667 0.572933
0.852267 0.758933 0.591067
0.878467 0.782200 0.609200
0.904667 0.805467 0.627333
0.930867 0.828733 0.645467
0.589133 0.525467 0.409067
0.615333 0.548733 0.427200
0.641533 0.572000 0.445333
0.667733 0.595267 0.463467
0.693933 0.618533 0.481600
0.720133 0.641800 0.499733
0.746333 0.665067 0.517867
0.772533 0.688333 0.536000
0.798733 0.711600 0.554133
0.824933 0.734867 0.572267
0.851133 0.758133 0.590400
0.877333 0.781400 0.608533
0.903533 0.804667 0.626667
0.929733 0.827933 0.644800
0.955933 0.851200 0.662933
0.982133 0.874467 0.681067
0.640400 0.571200 0.444667
0.666600 0.594467 0.462800
0.692800 0.617733 0.480933
0.719000 0.641000 0.499067
0.745200 0.664267 0.517200
0.771400 0.687533 0.535333
0.797600 0.710800 0.553467
0.823800 0.734067 0.571600
0.850000 0.757333 0.589733
0.876200 0.780600 0.607867
0.902400 0.803867 0.626000
0.928600 0.827133 0.644133
0.954800 0.850400 0.662267
0.981000 0.873667 0.680400
1.000000 0.896933 0.698533
1.000000 0.920200 0.716667
0.691667 0.616933 0.480267
0.717867 0.640200 0.498400
0.744067 0.663467 0.516533
0.770267 0.686733 0.534667
0.796467 0.710000 0.552800
0.822667 0.733267 0.570933
0.848867 0.756533 0.589067
0.875067 0.779800 0.607200
0.901267 0.803067 0.625333
0.927467 0.826333 0.643467
0.953667 0.849600 0.661600
0.979867 0.872867 0.679733
1.000000 0.896133 0.697867
1.000000 0.919400 0.716000
1.000000 0.942667 0.734133
1.000000 0.965933 0.752267
0.742933 0.662667 0.515867
0.769133 0.685933 0.534000
0.795333 0.709200 0.552133
0.821533 0.732467 0.570267
0.847733 0.755733 0.588400
0.873933 0.779000 0.606533
0.900133 0.802267 0.624667
0.926333 0.825533 0.642800
0.952533 0.848800 0.660933
0.978733 0.872067 0.679067
1.000000 0.895333 0.697200
1.000000 0.918600 0.715333
1.000000 0.941867 0.733467
1.000000 0.965133 0.751600
1.000000 0.988400 0.769733
1.000000 1.000000 0.787867
0.794200 0.708400 0.551467
0.820400 0.731667 0.569600
0.846600 0.754933 0.587733
0.872800 0.778200 0.605867
0.899000 0.801467 0.624000
0.925200 0.824733 0.642133
0.951400 0.848000 0.660267
0.977600 0.871267 0.678400
1.000000 0.894533 0.696533
1.000000 0.917800 0.714667
1.000000 0.941067 0.732800
1.000000 0.964333 0.750933
1.000000 0.987600 0.769067
1.000000 1.000000 0.787200
1.000000 1.000000 0.805333
1.000000 1.000000 0.823467
0.037800 0.033600 0.026200
0.064000 0.056867 0.044333
0.090200 0.080133 0.062467
0.116400 0.103400 0.080600
0.142600 0.126667 0.098733
0.168800 0.149933 0.116867
0.195000 0.173200 0.135000
0.221200 0.196467 0.153133
0.247400 0.219733 0.171267
0.273600 0.243000 0.189400
0.299800 0.266267 0.207533
0.326000 0.289533 0.225667
0.352200 0.312800 0.243800
0.378400 0.336067 0.261933
0.404600 0.359333 0.280067
0.430800 0.382600 0.298200
0.089067 0.079333 0.061800
0.115267 0.102600 0.079933
0.141467 0.125867 0.098067
0.167667 0.149133 0.116200
0.193867 0.172400 0.134333
0.220067 0.195667 0.152467
0.246267 0.218933 0.170600
0.272467 0.242200 0.188733
0.298667 0.265467 0.206867
0.324867 0.288733 0.225000
0.351067 0.312000 0.243133
0.377267 0.335267 0.261267
0.403467 0.358533 0.279400
0.429667 0.381800 0.297533
0.455867 0.405067 0.315667
0.482067 0.428333 0.333800
0.140333 0.125067 0.097400
0.166533 0.148333 0.115533
0.192733 0.171600 0.133667
0.218933 0.194867 0.151800
0.245133 0.218133 0.169933
0.271333 0.241400 0.188067
0.297533 0.264667 0.206200
0.323733 0.287933 0.224333
0.349933 0.311200 0.242467
0.376133 0.334467 0.260600
0.402333 0.357733 0.278733
0.428533 0.381000 0.296867
0.454733 0.404267 0.315000
0.480933 0.427533 0.333133
0.507133 0.450800 0.351267
0.533333 0.474067 0.369400
0.191600 0.170800 0.133000
0.217800 0.194067 0.151133
0.244000 0.217333 0.169267
0.270200 0.240600 0.187400
0.296400 0.263867 0.205533
0.322600 0.287133 0.223667
0.348800 0.310400 0.241800
0.375000 0.333667 0.259933
0.401200 0.356933 0.278067
0.427400 0.380200 0.296200
0.453600 0.403467 0.314333
0.479800 0.426733 0.332467
0.506000 0.450000 0.350600
0.532200 0.473267 0.368733
0.558400 0.496533 0.386867
0.584600 0.519800 0.405000
0.242867 0.216533 0.168600
0.269067 0.239800 0.186733
0.295267 0.263067 0.204867
0.321467 0.286333 0.223000
0.347667 0.309600 0.241133
0.373867 0.332867 0.259267
0.400067 0.356133 0.277400
0.426267 0.379400 0.295533
0.452467 0.402667 0.313667
0.478667 0.425933 0.331800
0.504867 0.449200 0.349933
0.531067 0.472467 0.368067
0.557267 0.495733 0.386200
0.583467 0.519000 0.404333
0.609667 0.542267 0.422467
0.635867 0.565533 0.440600
0.294133 0.262267 0.204200
0.320333 0.285533 0.222333
0.346533 0.308800 0.240467
0.372733 0.332067 0.258600
0.398933 0.355333 0.276733
0.425133 0.378600 0.294867
0.451333 0.401867 0.313000
0.477533 0.425133 0.331133
0.503733 0.448400 0.349267
0.529933 0.471667 0.367400
0.556133 0.494933 0.385533
0.582333 0.518200 0.403667
0.608533 0.541467 0.421800
0.634733 0.564733 0.439933
0.660933 0.588000 0.458067
0.687133 0.611267 0.476200
0.345400 0.308000 0.239800
0.371600 0.331267 0.257933
0.397800 0.354533 0.276067
0.424000 0.377800 0.294200
0.450200 0.401067 0.312333
0.476400 0.424333 0.330467
0.502600 0.447600 0.348600
0.528800 0.470867 0.366733
0.555000 0.494133 0.384867
0.581200 0.517400 0.403000
0.607400 0.540667 0.421133
0.633600 0.563933 0.439267
0.659800 0.587200 0.457400
0.686000 0.610467 0.475533
0.712200 0.633733 0.493667
0.738400 0.657000 0.511800
0.396667 0.353733 0.275400
0.422867 0.377000 0.293533
0.449067 0.400267 0.311667
0.475267 0.423533 0.329800
0.501467 0.446800 0.347933
0.527667 0.470067 0.366067
0.553867 0.493333 0.384200
