resources/luts/warm.cube
TITLE "warm"
LUT_3D_SIZE 16
0.050000 0.020000 0.000000
0.120000 0.020000 0.000000
0.190000 0.020000 0.000000
0.260000 0.020000 0.000000
0.330000 0.020000 0.000000
0.400000 0.020000 0.000000
0.470000 0.020000 0.000000
0.540000 0.020000 0.000000
0.610000 0.020000 0.000000
0.680000 0.020000 0.000000
0.750000 0.020000 0.000000
0.820000 0.020000 0.000000
0.890000 0.020000 0.000000
0.960000 0.020000 0.000000
1.000000 0.020000 0.000000
1.000000 0.020000 0.000000
0.050000 0.088000 0.000000
0.120000 0.088000 0.000000
0.190000 0.088000 0.000000
0.260000 0.088000 0.000000
0.330000 0.088000 0.000000
0.400000 0.088000 0.000000
0.470000 0.088000 0.000000
0.540000 0.088000 0.000000
0.610000 0.088000 0.000000
0.680000 0.088000 0.000000
0.750000 0.088000 0.000000
0.820000 0.088000 0.000000
0.890000 0.088000 0.000000
0.960000 0.088000 0.000000
1.000000 0.088000 0.000000
1.000000 0.088000 0.000000
0.050000 0.156000 0.000000
0.120000 0.156000 0.000000
0.190000 0.156000 0.000000
0.260000 0.156000 0.000000
0.330000 0.156000 0.000000
0.400000 0.156000 0.000000
0.470000 0.156000 0.000000
0.540000 0.156000 0.000000
0.610000 0.156000 0.000000
0.680000 0.156000 0.000000
0.750000 0.156000 0.000000
0.820000 0.156000 0.000000
0.890000 0.156000 0.000000
0.960000 0.156000 0.000000
1.000000 0.156000 0.000000
1.000000 0.156000 0.000000
0.050000 0.224000 0.000000
0.120000 0.224000 0.000000
0.190000 0.224000 0.000000
0.260000 0.224000 0.000000
0.330000 0.224000 0.000000
0.400000 0.224000 0.000000
0.470000 0.224000 0.000000
0.540000 0.224000 0.000000
0.610000 0.224000 0.000000
0.680000 0.224000 0.000000
0.750000 0.224000 0.000000
0.820000 0.224000 0.000000
0.890000 0.224000 0.000000
0.960000 0.224000 0.000000
1.000000 0.224000 0.000000
1.000000 0.224000 0.000000
0.050000 0.292000 0.000000
0.120000 0.292000 0.000000
0.190000 0.292000 0.000000
0.260000 0.292000 0.000000
0.330000 0.292000 0.000000
0.400000 0.292000 0.000000
0.470000 0.292000 0.000000
0.540000 0.292000 0.000000
0.610000 0.292000 0.000000
0.680000 0.292000 0.000000
0.750000 0.292000 0.000000
0.820000 0.292000 0.000000
0.890000 0.292000 0.000000
0.960000 0.292000 0.000000
1.000000 0.292000 0.000000
1.000000 0.292000 0.000000
0.050000 0.360000 0.000000
0.120000 0.360000 0.000000
0.190000 0.360000 0.000000
0.260000 0.360000 0.000000
0.330000 0.360000 0.000000
0.400000 0.360000 0.000000
0.470000 0.360000 0.000000
0.540000 0.360000 0.000000
0.610000 0.360000 0.000000
0.680000 0.360000 0.000000
0.750000 0.360000 0.000000
0.820000 0.360000 0.000000
0.890000 0.360000 0.000000
0.960000 0.360000 0.000000
1.000000 0.360000 0.000000
1.000000 0.360000 0.000000
0.050000 0.428000 0.000000
0.120000 0.428000 0.000000
0.190000 0.428000 0.000000
0.260000 0.428000 0.000000
0.330000 0.428000 0.000000
0.400000 0.428000 0.000000
0.470000 0.428000 0.000000
0.540000 0.428000 0.000000
0.610000 0.428000 0.000000
0.680000 0.428000 0.000000
0.750000 0.428000 0.000000
0.820000 0.428000 0.000000
0.890000 0.428000 0.000000
0.960000 0.428000 0.000000
1.000000 0.428000 0.000000
1.000000 0.428000 0.000000
0.050000 0.496000 0.000000
0.120000 0.496000 0.000000
0.190000 0.496000 0.000000
0.260000 0.496000 0.000000
0.330000 0.496000 0.000000
0.400000 0.496000 0.000000
0.470000 0.496000 0.000000
0.540000 0.496000 0.000000
0.610000 0.496000 0.000000
0.680000 0.496000 0.000000
0.750000 0.496000 0.000000
0.820000 0.496000 0.000000
0.890000 0.496000 0.000000
0.960000 0.496000 0.000000
1.000000 0.496000 0.000000
1.000000 0.496000 0.000000
0.050000 0.564000 0.000000
0.120000 0.564000 0.000000
0.190000 0.564000 0.000000
0.260000 0.564000 0.000000
0.330000 0.564000 0.000000
0.400000 0.564000 0.000000
0.470000 0.564000 0.000000
0.540000 0.564000 0.000000
0.610000 0.564000 0.000000
0.680000 0.564000 0.000000
0.750000 0.564000 0.000000
0.820000 0.564000 0.000000
0.890000 0.564000 0.000000
0.960000 0.564000 0.000000
1.000000 0.564000 0.000000
1.000000 0.564000 0.000000
0.050000 0.632000 0.000000
0.120000 0.632000 0.000000
0.190000 0.632000 0.000000
0.260000 0.632000 0.000000
0.330000 0.632000 0.000000
0.400000 0.632000 0.000000
0.470000 0.632000 0.000000
0.540000 0.632000 0.000000
0.610000 0.632000 0.000000
0.680000 0.632000 0.000000
0.750000 0.632000 0.000000
0.820000 0.632000 0.000000
0.890000 0.632000 0.000000
0.960000 0.632000 0.000000
1.000000 0.632000 0.000000
1.000000 0.632000 0.000000
0.050000 0.700000 0.000000
0.120000 0.700000 0.000000
0.190000 0.700000 0.000000
0.260000 0.700000 0.000000
0.330000 0.700000 0.000000
0.400000 0.700000 0.000000
0.470000 0.700000 0.000000
0.540000 0.700000 0.000000
0.610000 0.700000 0.000000
0.680000 0.700000 0.000000
0.750000 0.700000 0.000000
0.820000 0.700000 0.000000
0.890000 0.700000 0.000000
0.960000 0.700000 0.000000
1.000000 0.700000 0.000000
1.000000 0.700000 0.000000
0.050000 0.768000 0.000000
0.120000 0.768000 0.000000
0.190000 0.768000 0.000000
0.260000 0.768000 0.000000
0.330000 0.768000 0.000000
0.400000 0.768000 0.000000
0.470000 0.768000 0.000000
0.540000 0.768000 0.000000
0.610000 0.768000 0.000000
0.680000 0.768000 0.000000
0.750000 0.768000 0.000000
0.820000 0.768000 0.000000
0.890000 0.768000 0.000000
0.960000 0.768000 0.000000
1.000000 0.768000 0.000000
1.000000 0.768000 0.000000
0.050000 0.836000 0.000000
0.120000 0.836000 0.000000
0.190000 0.836000 0.000000
0.260000 0.836000 0.000000
0.330000 0.836000 0.000000
0.400000 0.836000 0.000000
0.470000 0.836000 0.000000
0.540000 0.836000 0.000000
0.610000 0.836000 0.000000
0.680000 0.836000 0.000000
0.750000 0.836000 0.000000
0.820000 0.836000 0.000000
0.890000 0.836000 0.000000
0.960000 0.836000 0.000000
1.000000 0.836000 0.000000
1.000000 0.836000 0.000000
0.050000 0.904000 0.000000
0.120000 0.904000 0.000000
0.190000 0.904000 0.000000
0.260000 0.904000 0.000000
0.330000 0.904000 0.000000
0.400000 0.904000 0.000000
0.470000 0.904000 0.000000
0.540000 0.904000 0.000000
0.610000 0.904000 0.000000
0.680000 0.904000 0.000000
0.750000 0.904000 0.000000
0.820000 0.904000 0.000000
0.890000 0.904000 0.000000
0.960000 0.904000 0.000000
1.000000 0.904000 0.000000
1.000000 0.904000 0.000000
0.050000 0.972000 0.000000
0.120000 0.972000 0.000000
0.190000 0.972000 0.000000
0.260000 0.972000 0.000000
0.330000 0.972000 0.000000
0.400000 0.972000 0.000000
0.470000 0.972000 0.000000
0.540000 0.972000 0.000000
0.610000 0.972000 0.000000
0.680000 0.972000 0.000000
0.750000 0.972000 0.000000
0.820000 0.972000 0.000000
0.890000 0.972000 0.000000
0.960000 0.972000 0.000000
1.000000 0.972000 0.000000
1.000000 0.972000 0.000000
0.050000 1.000000 0.000000
0.120000 1.000000 0.000000
0.190000 1.000000 0.000000
0.260000 1.000000 0.000000
0.330000 1.000000 0.000000
0.400000 1.000000 0.000000
0.470000 1.000000 0.000000
0.540000 1.000000 0.000000
0.610000 1.000000 0.000000
0.680000 1.000000 0.000000
0.750000 1.000000 0.000000
0.820000 1.000000 0.000000
0.890000 1.000000 0.000000
0.960000 1.000000 0.000000
1.000000 1.000000 0.000000
1.000000 1.000000 0.000000
0.050000 0.020000 0.010000
0.120000 0.020000 0.010000
0.190000 0.020000 0.010000
0.260000 0.020000 0.010000
0.330000 0.020000 0.010000
0.400000 0.020000 0.010000
0.470000 0.020000 0.010000
0.540000 0.020000 0.010000
0.610000 0.020000 0.010000
0.680000 0.020000 0.010000
0.750000 0.020000 0.010000
0.820000 0.020000 0.010000
0.890000 0.020000 0.010000
0.960000 0.020000 0.010000
1.000000 0.020000 0.010000
1.000000 0.020000 0.010000
0.050000 0.088000 0.010000
0.120000 0.088000 0.010000
0.190000 0.088000 0.010000
0.260000 0.088000 0.010000
0.330000 0.088000 0.010000
0.400000 0.088000 0.010000
0.470000 0.088000 0.010000
0.540000 0.088000 0.010000
0.610000 0.088000 0.010000
0.680000 0.088000 0.010000
0.750000 0.088000 0.010000
0.820000 0.088000 0.010000
0.890000 0.088000 0.010000
0.960000 0.088000 0.010000
1.000000 0.088000 0.010000
1.000000 0.088000 0.010000
0.050000 0.156000 0.010000
0.120000 0.156000 0.010000
0.190000 0.156000 0.010000
0.260000 0.156000 0.010000
0.330000 0.156000 0.010000
0.400000 0.156000 0.010000
0.470000 0.156000 0.010000
0.540000 0.156000 0.010000
0.610000 0.156000 0.010000
0.680000 0.156000 0.010000
0.750000 0.156000 0.010000
0.820000 0.156000 0.010000
0.890000 0.156000 0.010000
0.960000 0.156000 0.010000
1.000000 0.156000 0.010000
1.000000 0.156000 0.010000
0.050000 0.224000 0.010000
0.120000 0.224000 0.010000
0.190000 0.224000 0.010000
0.260000 0.224000 0.010000
0.330000 0.224000 0.010000
0.400000 0.224000 0.010000
0.470000 0.224000 0.010000
0.540000 0.224000 0.010000
0.610000 0.224000 0.010000
0.680000 0.224000 0.010000
0.750000 0.224000 0.010000
0.820000 0.224000 0.010000
0.890000 0.224000 0.010000
0.960000 0.224000 0.010000
1.000000 0.224000 0.010000
1.000000 0.224000 0.010000
0.050000 0.292000 0.010000
0.120000 0.292000 0.010000
0.190000 0.292000 0.010000
0.260000 0.292000 0.010000
0.330000 0.292000 0.010000
0.400000 0.292000 0.010000
0.470000 0.292000 0.010000
0.540000 0.292000 0.010000
0.610000 0.292000 0.010000
0.680000 0.292000 0.010000
0.750000 0.292000 0.010000
0.820000 0.292000 0.010000
0.890000 0.292000 0.010000
0.960000 0.292000 0.010000
1.000000 0.292000 0.010000
1.000000 0.292000 0.010000
0.050000 0.360000 0.010000
0.120000 0.360000 0.010000
0.190000 0.360000 0.010000
0.260000 0.360000 0.010000
0.330000 0.360000 0.010000
0.400000 0.360000 0.010000
0.470000 0.360000 0.010000
0.540000 0.360000 0.010000
0.610000 0.360000 0.010000
0.680000 0.360000 0.010000
0.750000 0.360000 0.010000
0.820000 0.360000 0.010000
0.890000 0.360000 0.010000
0.960000 0.360000 0.010000
1.000000 0.360000 0.010000
1.000000 0.360000 0.010000
0.050000 0.428000 0.010000
0.120000 0.428000 0.010000
0.190000 0.428000 0.010000
0.260000 0.428000 0.010000
0.330000 0.428000 0.010000
0.400000 0.428000 0.010000
0.470000 0.428000 0.010000
0.540000 0.428000 0.010000
0.610000 0.428000 0.010000
0.680000 0.428000 0.010000
0.750000 0.428000 0.010000
0.820000 0.428000 0.010000
0.890000 0.428000 0.010000
0.960000 0.428000 0.010000
1.000000 0.428000 0.010000
1.000000 0.428000 0.010000
0.050000 0.496000 0.010000
0.120000 0.496000 0.010000
0.190000 0.496000 0.010000
0.260000 0.496000 0.010000
0.330000 0.496000 0.010000
0.400000 0.496000 0.010000
0.470000 0.496000 0.010000
0.540000 0.496000 0.010000
0.610000 0.496000 0.010000
0.680000 0.496000 0.010000
0.750000 0.496000 0.010000
0.820000 0.496000 0.010000
0.890000 0.496000 0.010000
0.960000 0.496000 0.010000
1.000000 0.496000 0.010000
1.000000 0.496000 0.010000
0.050000 0.564000 0.010000
0.120000 0.564000 0.010000
0.190000 0.564000 0.010000
0.260000 0.564000 0.010000
0.330000 0.564000 0.010000
0.400000 0.564000 0.010000
0.470000 0.564000 0.010000
0.540000 0.564000 0.010000
0.610000 0.564000 0.010000
0.680000 0.564000 0.010000
0.750000 0.564000 0.010000
0.820000 0.564000 0.010000
0.890000 0.564000 0.010000
0.960000 0.564000 0.010000
1.000000 0.564000 0.010000
1.000000 0.564000 0.010000
0.050000 0.632000 0.010000
0.120000 0.632000 0.010000
0.190000 0.632000 0.010000
0.260000 0.632000 0.010000
0.330000 0.632000 0.010000
0.400000 0.632000 0.010000
0.470000 0.632000 0.010000
0.540000 0.632000 0.010000
0.610000 0.632000 0.010000
0.680000 0.632000 0.010000
0.750000 0.632000 0.010000
0.820000 0.632000 0.010000
0.890000 0.632000 0.010000
0.960000 0.632000 0.010000
1.000000 0.632000 0.010000
1.000000 0.632000 0.010000
0.050000 0.700000 0.010000
0.120000 0.700000 0.010000
0.190000 0.700000 0.010000
0.260000 0.700000 0.010000
0.330000 0.700000 0.010000
0.400000 0.700000 0.010000
0.470000 0.700000 0.010000
0.540000 0.700000 0.010000
0.610000 0.700000 0.010000
0.680000 0.700000 0.010000
0.750000 0.700000 0.010000
0.820000 0.700000 0.010000
0.890000 0.700000 0.010000
0.960000 0.700000 0.010000
1.000000 0.700000 0.010000
1.000000 0.700000 0.010000
0.050000 0.768000 0.010000
0.120000 0.768000 0.010000
0.190000 0.768000 0.010000
0.260000 0.768000 0.010000
0.330000 0.768000 0.010000
0.400000 0.768000 0.010000
0.470000 0.768000 0.010000
0.540000 0.768000 0.010000
0.610000 0.768000 0.010000
0.680000 0.768000 0.010000
0.750000 0.768000 0.010000
0.820000 0.768000 0.010000
0.890000 0.768000 0.010000
0.960000 0.768000 0.010000
1.000000 0.768000 0.010000
1.000000 0.768000 0.010000
0.050000 0.836000 0.010000
0.120000 0.836000 0.010000
0.190000 0.836000 0.010000
0.260000 0.836000 0.010000
0.330000 0.836000 0.010000
0.400000 0.836000 0.010000
0.470000 0.836000 0.010000
0.540000 0.836000 0.010000
0.610000 0.836000 0.010000
0.680000 0.836000 0.010000
0.750000 0.836000 0.010000
0.820000 0.836000 0.010000
0.890000 0.836000 0.010000
0.960000 0.836000 0.010000
1.000000 0.836000 0.010000
1.000000 0.836000 0.010000
0.050000 0.904000 0.010000
0.120000 0.904000 0.010000
0.190000 0.904000 0.010000
0.260000 0.904000 0.010000
0.330000 0.904000 0.010000
0.400000 0.904000 0.010000
0.470000 0.904000 0.010000
0.540000 0.904000 0.010000
0.610000 0.904000 0.010000
0.680000 0.904000 0.010000
0.750000 0.904000 0.010000
0.820000 0.904000 0.010000
0.890000 0.904000 0.010000
0.960000 0.904000 0.010000
1.000000 0.904000 0.010000
1.000000 0.904000 0.010000
0.050000 0.972000 0.010000
0.120000 0.972000 0.010000
0.190000 0.972000 0.010000
0.260000 0.972000 0.010000
0.330000 0.972000 0.010000
0.400000 0.972000 0.010000
0.470000 0.972000 0.010000
0.540000 0.972000 0.010000
0.610000 0.972000 0.010000
0.680000 0.972000 0.010000
0.750000 0.972000 0.010000
0.820000 0.972000 0.010000
0.890000 0.972000 0.010000
0.960000 0.972000 0.010000
1.000000 0.972000 0.010000
1.000000 0.972000 0.010000
0.050000 1.000000 0.010000
0.120000 1.000000 0.010000
0.190000 1.000000 0.010000
0.260000 1.000000 0.010000
0.330000 1.000000 0.010000
0.400000 1.000000 0.010000
0.470000 1.000000 0.010000
0.540000 1.000000 0.010000
0.610000 1.000000 0.010000
0.680000 1.000000 0.010000
0.750000 1.000000 0.010000
0.820000 1.000000 0.010000
0.890000 1.000000 0.010000
0.960000 1.000000 0.010000
1.000000 1.000000 0.010000
1.000000 1.000000 0.010000
0.050000 0.020000 0.070000
0.120000 0.020000 0.070000
0.190000 0.020000 0.070000
0.260000 0.020000 0.070000
0.330000 0.020000 0.070000
0.400000 0.020000 0.070000
0.470000 0.020000 0.070000
0.540000 0.020000 0.070000
0.610000 0.020000 0.070000
0.680000 0.020000 0.070000
0.750000 0.020000 0.070000
0.820000 0.020000 0.070000
0.890000 0.020000 0.070000
0.960000 0.020000 0.070000
1.000000 0.020000 0.070000
1.000000 0.020000 0.070000
0.050000 0.088000 0.070000
0.120000 0.088000 0.070000
0.190000 0.088000 0.070000
0.260000 0.088000 0.070000
0.330000 0.088000 0.070000
0.400000 0.088000 0.070000
0.470000 0.088000 0.070000
0.540000 0.088000 0.070000
0.610000 0.088000 0.070000
0.680000 0.088000 0.070000
0.750000 0.088000 0.070000
0.820000 0.088000 0.070000
0.890000 0.088000 0.070000
0.960000 0.088000 0.070000
1.000000 0.088000 0.070000
1.000000 0.088000 0.070000
0.050000 0.156000 0.070000
0.120000 0.156000 0.070000
0.190000 0.156000 0.070000
0.260000 0.156000 0.070000
0.330000 0.156000 0.070000
0.400000 0.156000 0.070000
0.470000 0.156000 0.070000
0.540000 0.156000 0.070000
0.610000 0.156000 0.070000
0.680000 0.156000 0.070000
0.750000 0.156000 0.070000
0.820000 0.156000 0.070000
0.890000 0.156000 0.070000
0.960000 0.156000 0.070000
1.000000 0.156000 0.070000
1.000000 0.156000 0.070000
0.050000 0.224000 0.070000
0.120000 0.224000 0.070000
0.190000 0.224000 0.070000
0.260000 0.224000 0.070000
0.330000 0.224000 0.070000
0.400000 0.224000 0.070000
0.470000 0.224000 0.070000
0.540000 0.224000 0.070000
0.610000 0.224000 0.070000
0.680000 0.224000 0.070000
0.750000 0.224000 0.070000
0.820000 0.224000 0.070000
0.890000 0.224000 0.070000
0.960000 0.224000 0.070000
1.000000 0.224000 0.070000
1.000000 0.224000 0.070000
0.050000 0.292000 0.070000
0.120000 0.292000 0.070000
0.190000 0.292000 0.070000
0.260000 0.292000 0.070000
0.330000 0.292000 0.070000
0.400000 0.292000 0.070000
0.470000 0.292000 0.070000
0.540000 0.292000 0.070000
0.610000 0.292000 0.070000
0.680000 0.292000 0.070000
0.750000 0.292000 0.070000
0.820000 0.292000 0.070000
0.890000 0.292000 0.070000
0.960000 0.292000 0.070000
1.000000 0.292000 0.070000
1.000000 0.292000 0.070000
0.050000 0.360000 0.070000
0.120000 0.360000 0.070000
0.190000 0.360000 0.070000
0.260000 0.360000 0.070000
0.330000 0.360000 0.070000
0.400000 0.360000 0.070000
0.470000 0.360000 0.070000
0.540000 0.360000 0.070000
0.610000 0.360000 0.070000
0.680000 0.360000 0.070000
0.750000 0.360000 0.070000
0.820000 0.360000 0.070000
0.890000 0.360000 0.070000
0.960000 0.360000 0.070000
1.000000 0.360000 0.070000
1.000000 0.360000 0.070000
0.050000 0.428000 0.070000
0.120000 0.428000 0.070000
0.190000 0.428000 0.070000
0.260000 0.428000 0.070000
0.330000 0.428000 0.070000
0.400000 0.428000 0.070000
0.470000 0.428000 0.070000
0.540000 0.428000 0.070000
0.610000 0.428000 0.070000
0.680000 0.428000 0.070000
0.750000 0.428000 0.070000
0.820000 0.428000 0.070000
0.890000 0.428000 0.070000
0.960000 0.428000 0.070000
1.000000 0.428000 0.070000
1.000000 0.428000 0.070000
0.050000 0.496000 0.070000
0.120000 0.496000 0.070000
0.190000 0.496000 0.070000
0.260000 0.496000 0.070000
0.330000 0.496000 0.070000
0.400000 0.496000 0.070000
0.470000 0.496000 0.070000
0.540000 0.496000 0.070000
0.610000 0.496000 0.070000
0.680000 0.496000 0.070000
0.750000 0.496000 0.070000
0.820000 0.496000 0.070000
0.890000 0.496000 0.070000
0.960000 0.496000 0.070000
1.000000 0.496000 0.070000
1.000000 0.496000 0.070000
0.050000 0.564000 0.070000
0.120000 0.564000 0.070000
0.190000 0.564000 0.070000
0.260000 0.564000 0.070000
0.330000 0.564000 0.070000
0.400000 0.564000 0.070000
0.470000 0.564000 0.070000
0.540000 0.564000 0.070000
0.610000 0.564000 0.070000
0.680000 0.564000 0.070000
0.750000 0.564000 0.070000
0.820000 0.564000 0.070000
0.890000 0.564000 0.070000
0.960000 0.564000 0.070000
1.000000 0.564000 0.070000
1.000000 0.564000 0.070000
0.050000 0.632000 0.070000
0.120000 0.632000 0.070000
0.190000 0.632000 0.070000
0.260000 0.632000 0.070000
0.330000 0.632000 0.070000
0.400000 0.632000 0.070000
0.470000 0.632000 0.070000
0.540000 0.632000 0.070000
0.610000 0.632000 0.070000
0.680000 0.632000 0.070000
0.750000 0.632000 0.070000
0.820000 0.632000 0.070000
0.890000 0.632000 0.070000
0.960000 0.632000 0.070000
1.000000 0.632000 0.070000
1.000000 0.632000 0.070000
0.050000 0.700000 0.070000
0.120000 0.700000 0.070000
0.190000 0.700000 0.070000
0.260000 0.700000 0.070000
0.330000 0.700000 0.070000
0.400000 0.700000 0.070000
0.470000 0.700000 0.070000
0.540000 0.700000 0.070000
0.610000 0.700000 0.070000
0.680000 0.700000 0.070000
0.750000 0.700000 0.070000
0.820000 0.700000 0.070000
0.890000 0.700000 0.070000
0.960000 0.700000 0.070000
1.000000 0.700000 0.070000
1.000000 0.700000 0.070000
0.050000 0.768000 0.070000
0.120000 0.768000 0.070000
0.190000 0.768000 0.070000
0.260000 0.768000 0.070000
0.330000 0.768000 0.070000
0.400000 0.768000 0.070000
0.470000 0.768000 0.070000
0.540000 0.768000 0.070000
0.610000 0.768000 0.070000
0.680000 0.768000 0.070000
0.750000 0.768000 0.070000
0.820000 0.768000 0.070000
0.890000 0.768000 0.070000
0.960000 0.768000 0.070000
1.000000 0.768000 0.070000
1.000000 0.768000 0.070000
0.050000 0.836000 0.070000
0.120000 0.836000 0.070000
0.190000 0.836000 0.070000
0.260000 0.836000 0.070000
0.330000 0.836000 0.070000
0.400000 0.836000 0.070000
0.470000 0.836000 0.070000
0.540000 0.836000 0.070000
0.610000 0.836000 0.070000
0.680000 0.836000 0.070000
0.750000 0.836000 0.070000
0.820000 0.836000 0.070000
0.890000 0.836000 0.070000
0.960000 0.836000 0.070000
1.000000 0.836000 0.070000
1.000000 0.836000 0.070000
0.050000 0.904000 0.070000
0.120000 0.904000 0.070000
0.190000 0.904000 0.070000
0.260000 0.904000 0.070000
0.330000 0.904000 0.070000
0.400000 0.904000 0.070000
0.470000 0.904000 0.070000
0.540000 0.904000 0.070000
0.610000 0.904000 0.070000
0.680000 0.904000 0.070000
0.750000 0.904000 0.070000
0.820000 0.904000 0.070000
0.890000 0.904000 0.070000
0.960000 0.904000 0.070000
1.000000 0.904000 0.070000
1.000000 0.904000 0.070000
0.050000 0.972000 0.070000
0.120000 0.972000 0.070000
0.190000 0.972000 0.070000
0.260000 0.972000 0.070000
0.330000 0.972000 0.070000
0.400000 0.972000 0.070000
0.470000 0.972000 0.070000
0.540000 0.972000 0.070000
0.610000 0.972000 0.070000
0.680000 0.972000 0.070000
0.750000 0.972000 0.070000
0.820000 0.972000 0.070000
0.890000 0.972000 0.070000
0.960000 0.972000 0.070000
1.000000 0.972000 0.070000
1.000000 0.972000 0.070000
0.050000 1.000000 0.070000
0.120000 1.000000 0.070000
0.190000 1.000000 0.070000
0.260000 1.000000 0.070000
0.330000 1.000000 0.070000
0.400000 1.000000 0.070000
0.470000 1.000000 0.070000
0.540000 1.000000 0.070000
0.610000 1.000000 0.070000
0.680000 1.000000 0.070000
0.750000 1.000000 0.070000
0.820000 1.000000 0.070000
0.890000 1.000000 0.070000
0.960000 1.000000 0.070000
1.000000 1.000000 0.070000
1.000000 1.000000 0.070000
0.050000 0.020000 0.130000
0.120000 0.020000 0.130000
0.190000 0.020000 0.130000
0.260000 0.020000 0.130000
0.330000 0.020000 0.130000
0.400000 0.020000 0.130000
0.470000 0.020000 0.130000
0.540000 0.020000 0.130000
0.610000 0.020000 0.130000
0.680000 0.020000 0.130000
0.750000 0.020000 0.130000
0.820000 0.020000 0.130000
0.890000 0.020000 0.130000
0.960000 0.020000 0.130000
1.000000 0.020000 0.130000
1.000000 0.020000 0.130000
0.050000 0.088000 0.130000
0.120000 0.088000 0.130000
0.190000 0.088000 0.130000
0.260000 0.088000 0.130000
0.330000 0.088000 0.130000
0.400000 0.088000 0.130000
0.470000 0.088000 0.130000
0.540000 0.088000 0.130000
0.610000 0.088000 0.130000
0.680000 0.088000 0.130000
0.750000 0.088000 0.130000
0.820000 0.088000 0.130000
0.890000 0.088000 0.130000
0.960000 0.088000 0.130000
1.000000 0.088000 0.130000
1.000000 0.088000 0.130000
0.050000 0.156000 0.130000
0.120000 0.156000 0.130000
0.190000 0.156000 0.130000
0.260000 0.156000 0.130000
0.330000 0.156000 0.130000
0.400000 0.156000 0.130000
0.470000 0.156000 0.130000
0.540000 0.156000 0.130000
0.610000 0.156000 0.130000
0.680000 0.156000 0.130000
0.750000 0.156000 0.130000
0.820000 0.156000 0.130000
0.890000 0.156000 0.130000
0.960000 0.156000 0.130000
1.000000 0.156000 0.130000
1.000000 0.156000 0.130000
0.050000 0.224000 0.130000
0.120000 0.224000 0.130000
0.190000 0.224000 0.130000
0.260000 0.224000 0.130000
0.330000 0.224000 0.130000
0.400000 0.224000 0.130000
0.470000 0.224000 0.130000
0.540000 0.224000 0.130000
0.610000 0.224000 0.130000
0.680000 0.224000 0.130000
0.750000 0.224000 0.130000
0.820000 0.224000 0.130000
0.890000 0.224000 0.130000
0.960000 0.224000 0.130000
1.000000 0.224000 0.130000
1.000000 0.224000 0.130000
0.050000 0.292000 0.130000
0.120000 0.292000 0.130000
0.190000 0.292000 0.130000
0.260000 0.292000 0.130000
0.330000 0.292000 0.130000
0.400000 0.292000 0.130000
0.470000 0.292000 0.130000
0.540000 0.292000 0.130000
0.610000 0.292000 0.130000
0.680000 0.292000 0.130000
0.750000 0.292000 0.130000
0.820000 0.292000 0.130000
0.890000 0.292000 0.130000
0.960000 0.292000 0.130000
1.000000 0.292000 0.130000
1.000000 0.292000 0.130000
0.050000 0.360000 0.130000
0.120000 0.360000 0.130000
0.190000 0.360000 0.130000
0.260000 0.360000 0.130000
0.330000 0.360000 0.130000
0.400000 0.360000 0.130000
0.470000 0.360000 0.130000
0.540000 0.360000 0.130000
0.610000 0.360000 0.130000
0.680000 0.360000 0.130000
0.750000 0.360000 0.130000
0.820000 0.360000 0.130000
0.890000 0.360000 0.130000
0.960000 0.360000 0.130000
1.000000 0.360000 0.130000
1.000000 0.360000 0.130000
0.050000 0.428000 0.130000
0.120000 0.428000 0.130000
0.190000 0.428000 0.130000
0.260000 0.428000 0.130000
0.330000 0.428000 0.130000
0.400000 0.428000 0.130000
0.470000 0.428000 0.130000
0.540000 0.428000 0.130000
0.610000 0.428000 0.130000
0.680000 0.428000 0.130000
0.750000 0.428000 0.130000
0.820000 0.428000 0.130000
0.890000 0.428000 0.130000
0.960000 0.428000 0.130000
1.000000 0.428000 0.130000
1.000000 0.428000 0.130000
0.050000 0.496000 0.130000
0.120000 0.496000 0.130000
0.190000 0.496000 0.130000
0.260000 0.496000 0.130000
0.330000 0.496000 0.130000
0.400000 0.496000 0.130000
0.470000 0.496000 0.130000
