resources/luts/warm.cube
TITLE "warm"
LUT_3D_SIZE 6
0.050000 0.020000 0.000000
0.260000 0.020000 0.000000
0.470000 0.020000 0.000000
0.680000 0.020000 0.000000
0.890000 0.020000 0.000000
1.000000 0.020000 0.000000
0.050000 0.224000 0.000000
0.260000 0.224000 0.000000
0.470000 0.224000 0.000000
0.680000 0.224000 0.000000
0.890000 0.224000 0.000000
1.000000 0.224000 0.000000
0.050000 0.428000 0.000000
0.260000 0.428000 0.000000
0.470000 0.428000 0.000000
0.680000 0.428000 0.000000
0.890000 0.428000 0.000000
1.000000 0.428000 0.000000
0.050000 0.632000 0.000000
0.260000 0.632000 0.000000
0.470000 0.632000 0.000000
0.680000 0.632000 0.000000
0.890000 0.632000 0.000000
1.000000 0.632000 0.000000
0.050000 0.836000 0.000000
0.260000 0.836000 0.000000
0.470000 0.836000 0.000000
0.680000 0.836000 0.000000
0.890000 0.836000 0.000000
1.000000 0.836000 0.000000
0.050000 1.000000 0.000000
0.260000 1.000000 0.000000
0.470000 1.000000 0.000000
0.680000 1.000000 0.000000
0.890000 1.000000 0.000000
1.000000 1.000000 0.000000
0.050000 0.020000 0.130000
0.260000 0.020000 0.130000
0.470000 0.020000 0.130000
0.680000 0.020000 0.130000
0.890000 0.020000 0.130000
1.000000 0.020000 0.130000
0.050000 0.224000 0.130000
0.260000 0.224000 0.130000
0.470000 0.224000 0.130000
0.680000 0.224000 0.130000
0.890000 0.224000 0.130000
1.000000 0.224000 0.130000
0.050000 0.428000 0.130000
0.260000 0.428000 0.130000
0.470000 0.428000 0.130000
0.680000 0.428000 0.130000
0.890000 0.428000 0.130000
1.000000 0.428000 0.130000
0.050000 0.632000 0.130000
0.260000 0.632000 0.130000
0.470000 0.632000 0.130000
0.680000 0.632000 0.130000
0.890000 0.632000 0.130000
1.000000 0.632000 0.130000
0.050000 0.836000 0.130000
0.260000 0.836000 0.130000
0.470000 0.836000 0.130000
0.680000 0.836000 0.130000
0.890000 0.836000 0.130000
1.000000 0.836000 0.130000
0.050000 1.000000 0.130000
0.260000 1.000000 0.130000
0.470000 1.000000 0.130000
0.680000 1.000000 0.130000
0.890000 1.000000 0.130000
1.000000 1.000000 0.130000
0.050000 0.020000 0.310000
0.260000 0.020000 0.310000
0.470000 0.020000 0.310000
0.680000 0.020000 0.310000
0.890000 0.020000 0.310000
1.000000 0.020000 0.310000
0.050000 0.224000 0.310000
0.260000 0.224000 0.310000
0.470000 0.224000 0.310000
0.680000 0.224000 0.310000
0.890000 0.224000 0.310000
1.000000 0.224000 0.310000
0.050000 0.428000 0.310000
0.260000 0.428000 0.310000
0.470000 0.428000 0.310000
0.680000 0.428000 0.310000
0.890000 0.428000 0.310000
1.000000 0.428000 0.310000
0.050000 0.632000 0.310000
0.260000 0.632000 0.310000
0.470000 0.632000 0.310000
0.680000 0.632000 0.310000
0.890000 0.632000 0.310000
1.000000 0.632000 0.310000
0.050000 0.836000 0.310000
0.260000 0.836000 0.310000
0.470000 0.836000 0.310000
0.680000 0.836000 0.310000
0.890000 0.836000 0.310000
1.000000 0.836000 0.310000
0.050000 1.000000 0.310000
0.260000 1.000000 0.310000
0.470000 1.000000 0.310000
0.680000 1.000000 0.310000
0.890000 1.000000 0.310000
1.000000 1.000000 0.310000
0.050000 0.020000 0.490000
0.260000 0.020000 0.490000
0.470000 0.020000 0.490000
0.680000 0.020000 0.490000
0.890000 0.020000 0.490000
1.000000 0.020000 0.490000
0.050000 0.224000 0.490000
0.260000 0.224000 0.490000
0.470000 0.224000 0.490000
0.680000 0.224000 0.490000
0.890000 0.224000 0.490000
1.000000 0.224000 0.490000
0.050000 0.428000 0.490000
0.260000 0.428000 0.490000
0.470000 0.428000 0.490000
0.680000 0.428000 0.490000
0.890000 0.428000 0.490000
1.000000 0.428000 0.490000
0.050000 0.632000 0.490000
0.260000 0.632000 0.490000
0.470000 0.632000 0.490000
0.680000 0.632000 0.490000
0.890000 0.632000 0.490000
1.000000 0.632000 0.490000
0.050000 0.836000 0.490000
0.260000 0.836000 0.490000
0.470000 0.836000 0.490000
0.680000 0.836000 0.490000
0.890000 0.836000 0.490000
1.000000 0.836000 0.490000
0.050000 1.000000 0.490000
0.260000 1.000000 0.490000
0.470000 1.000000 0.490000
0.680000 1.000000 0.490000
0.890000 1.000000 0.490000
1.000000 1.000000 0.490000
0.050000 0.020000 0.670000
0.260000 0.020000 0.670000
0.470000 0.020000 0.670000
0.680000 0.020000 0.670000
0.890000 0.020000 0.670000
1.000000 0.020000 0.670000
0.050000 0.224000 0.670000
0.260000 0.224000 0.670000
0.470000 0.224000 0.670000
0.680000 0.224000 0.670000
0.890000 0.224000 0.670000
1.000000 0.224000 0.670000
0.050000 0.428000 0.670000
0.260000 0.428000 0.670000
0.470000 0.428000 0.670000
0.680000 0.428000 0.670000
0.890000 0.428000 0.670000
1.000000 0.428000 0.670000
0.050000 0.632000 0.670000
0.260000 0.632000 0.670000
0.470000 0.632000 0.670000
0.680000 0.632000 0.670000
0.890000 0.632000 0.670000
1.000000 0.632000 0.670000
0.050000 0.836000 0.670000
0.260000 0.836000 0.670000
0.470000 0.836000 0.670000
0.680000 0.836000 0.670000
0.890000 0.836000 0.670000
1.000000 0.836000 0.670000
0.050000 1.000000 0.670000
0.260000 1.000000 0.670000
0.470000 1.000000 0.670000
0.680000 1.000000 0.670000
0.890000 1.000000 0.670000
1.000000 1.000000 0.670000
0.050000 0.020000 0.850000
0.260000 0.020000 0.850000
0.470000 0.020000 0.850000
0.680000 0.020000 0.850000
0.890000 0.020000 0.850000
1.000000 0.020000 0.850000
0.050000 0.224000 0.850000
0.260000 0.224000 0.850000
0.470000 0.224000 0.850000
0.680000 0.224000 0.850000
0.890000 0.224000 0.850000
1.000000 0.224000 0.850000
0.050000 0.428000 0.850000
0.260000 0.428000 0.850000
0.470000 0.428000 0.850000
0.680000 0.428000 0.850000
0.890000 0.428000 0.850000
1.000000 0.428000 0.850000
0.050000 0.632000 0.850000
0.260000 0.632000 0.850000
0.470000 0.632000 0.850000
0.680000 0.632000 0.850000
0.890000 0.632000 0.850000
1.000000 0.632000 0.850000
0.050000 0.836000 0.850000
0.260000 0.836000 0.850000
0.470000 0.836000 0.850000
0.680000 0.836000 0.850000
0.890000 0.836000 0.850000
1.000000 0.836000 0.850000
0.050000 1.000000 0.850000
0.260000 1.000000 0.850000
0.470000 1.000000 0.850000
0.680000 1.000000 0.850000
0.890000 1.000000 0.850000
1.000000 1.000000 0.850000
